;FLAVOR:Marlin
;TIME:1455
;Filament used: 1.07545m
;Layer height: 0.28
;MINX:0
;MINY:0
;MINZ:0.28
;MAXX:167.3
;MAXY:157.3
;MAXZ:33.44
;TARGET_MACHINE.NAME:Hellbot Magna SE 300
;Generated with Cura_SteamEngine 5.11.0
M140 S60
M105
M190 S60
M104 S210
M105
M109 S210
G28 ;Home
G1 Z15.0 F6000 ;Move the platform down 15mm
;Prime the extruder
G92 E0
G1 F200 E3
G92 E0
M82 ;absolute extrusion mode
G92 E0
G92 E0
G1 F2700 E-3
;LAYER_COUNT:118
;LAYER:0
M107
G1 F600 Z0.68
G0 F3900 X0.00 Y0.00 Z0.68
G0 X143.707 Y133.921
;TYPE:SKIRT
G1 F600 Z0.28
G1 F2700 E0
G1 F1650 X144.431 Y133.338 E0.04328
G1 X145.423 Y132.844 E0.09489
G1 X146.326 Y132.712 E0.13738
G1 X153.706 Y132.7 E0.48102
G1 X154.675 Y132.899 E0.52709
G1 X155.012 Y133.049 E0.54426
G1 X155.485 Y132.835 E0.56844
G1 X156.326 Y132.712 E0.60801
G1 X163.705 Y132.7 E0.95161
G1 X164.786 Y132.922 E1.003
G1 X165.694 Y133.405 E1.05089
G1 X166.079 Y133.707 E1.07367
G1 X166.662 Y134.431 E1.11696
G1 X167.156 Y135.423 E1.16856
G1 X167.288 Y136.326 E1.21105
G1 X167.3 Y143.706 E1.5547
G1 X167.101 Y144.675 E1.60076
G1 X166.951 Y145.012 E1.61794
G1 X167.165 Y145.485 E1.64211
G1 X167.288 Y146.326 E1.68169
G1 X167.3 Y153.705 E2.02529
G1 X167.078 Y154.786 E2.07667
G1 X166.595 Y155.694 E2.12456
G1 X166.293 Y156.079 E2.14735
G1 X165.569 Y156.662 E2.19063
G1 X164.577 Y157.156 E2.24223
G1 X163.674 Y157.288 E2.28473
G1 X156.233 Y157.3 E2.63121
G1 X155.352 Y157.107 E2.67321
G1 X154.995 Y156.948 E2.6914
G1 X154.515 Y157.165 E2.71593
G1 X153.674 Y157.288 E2.75551
G1 X146.233 Y157.3 E3.10199
G1 X145.19 Y157.071 E3.15172
G1 X144.267 Y156.577 E3.20047
G1 X143.898 Y156.27 E3.22282
G1 X143.339 Y155.575 E3.26435
G1 X142.844 Y154.576 E3.31626
G1 X142.712 Y153.674 E3.35871
G1 X142.7 Y146.294 E3.70236
G1 X142.899 Y145.325 E3.74842
G1 X143.049 Y144.988 E3.76559
G1 X142.835 Y144.515 E3.78977
G1 X142.712 Y143.674 E3.82935
G1 X142.7 Y136.295 E4.17294
G1 X142.922 Y135.214 E4.22433
G1 X143.405 Y134.306 E4.27222
G1 X143.707 Y133.921 E4.295
G0 F3900 X143.958 Y134.233
G1 F1650 X144.651 Y133.675 E4.33643
G1 X145.543 Y133.231 E4.38283
G1 X146.384 Y133.108 E4.42241
G1 X153.665 Y133.1 E4.76144
G1 X154.595 Y133.291 E4.80565
G1 X155.014 Y133.494 E4.82733
G1 X155.543 Y133.231 E4.85484
G1 X156.384 Y133.108 E4.89441
G1 X163.664 Y133.1 E5.2334
G1 X164.65 Y133.302 E5.28027
G1 X165.455 Y133.726 E5.32263
G1 X165.767 Y133.958 E5.34074
G1 X166.325 Y134.651 E5.38217
G1 X166.769 Y135.543 E5.42856
G1 X166.892 Y136.384 E5.46814
G1 X166.9 Y143.665 E5.80717
G1 X166.709 Y144.595 E5.85138
G1 X166.506 Y145.014 E5.87306
G1 X166.769 Y145.543 E5.90057
G1 X166.892 Y146.384 E5.94015
G1 X166.9 Y153.664 E6.27914
G1 X166.698 Y154.65 E6.326
G1 X166.274 Y155.455 E6.36837
G1 X166.042 Y155.767 E6.38647
G1 X165.349 Y156.325 E6.4279
G1 X164.457 Y156.769 E6.4743
G1 X163.616 Y156.892 E6.51388
G1 X156.278 Y156.9 E6.85556
G1 X155.438 Y156.716 E6.8956
G1 X154.991 Y156.503 E6.91866
G1 X154.457 Y156.769 E6.94644
G1 X153.616 Y156.892 E6.98602
G1 X146.278 Y156.9 E7.32771
G1 X145.33 Y156.692 E7.3729
G1 X144.456 Y156.224 E7.41906
G1 X144.21 Y156.019 E7.43397
G1 X143.677 Y155.356 E7.47359
G1 X143.231 Y154.457 E7.52031
G1 X143.108 Y153.616 E7.55989
G1 X143.1 Y146.335 E7.89893
G1 X143.291 Y145.405 E7.94313
G1 X143.494 Y144.986 E7.96481
G1 X143.231 Y144.457 E7.99232
G1 X143.108 Y143.616 E8.0319
G1 X143.1 Y136.336 E8.37089
G1 X143.302 Y135.35 E8.41775
G1 X143.726 Y134.545 E8.46012
G1 X143.958 Y134.233 E8.47822
G0 F3900 X144.249 Y134.512
G1 F1650 X144.867 Y134.014 E8.51518
G1 X145.663 Y133.618 E8.55658
G1 X146.442 Y133.504 E8.59324
G1 X153.624 Y133.5 E8.92766
G1 X154.515 Y133.683 E8.97002
G1 X155.009 Y133.943 E8.99601
G1 X155.663 Y133.618 E9.03002
G1 X156.442 Y133.504 E9.06668
G1 X163.623 Y133.5 E9.40105
G1 X164.513 Y133.682 E9.44335
G1 X165.268 Y134.08 E9.4831
G1 X165.488 Y134.249 E9.49601
G1 X165.986 Y134.867 E9.53297
G1 X166.382 Y135.663 E9.57437
G1 X166.496 Y136.442 E9.61103
G1 X166.5 Y143.624 E9.94545
G1 X166.317 Y144.515 E9.98781
G1 X166.057 Y145.009 E10.0138
G1 X166.382 Y145.663 E10.04781
G1 X166.496 Y146.442 E10.08447
G1 X166.5 Y153.623 E10.41885
G1 X166.318 Y154.513 E10.46115
G1 X165.92 Y155.268 E10.50089
G1 X165.751 Y155.488 E10.5138
G1 X165.133 Y155.986 E10.55076
G1 X164.337 Y156.382 E10.59216
G1 X163.558 Y156.496 E10.62882
G1 X156.323 Y156.5 E10.96571
G1 X155.524 Y156.325 E11.0038
G1 X154.992 Y156.056 E11.03156
G1 X154.337 Y156.382 E11.06563
G1 X153.558 Y156.496 E11.10229
G1 X146.323 Y156.5 E11.43918
G1 X145.47 Y156.313 E11.47984
G1 X144.645 Y155.871 E11.52342
G1 X144.522 Y155.768 E11.53089
G1 X144.015 Y155.137 E11.56858
G1 X143.618 Y154.337 E11.61017
G1 X143.504 Y153.558 E11.64683
G1 X143.5 Y146.376 E11.98125
G1 X143.683 Y145.485 E12.02361
G1 X143.943 Y144.991 E12.0496
G1 X143.618 Y144.337 E12.08361
G1 X143.504 Y143.558 E12.12027
G1 X143.5 Y136.377 E12.45465
G1 X143.682 Y135.487 E12.49695
G1 X144.08 Y134.732 E12.53669
G1 X144.249 Y134.512 E12.5496
G0 F3900 X144.537 Y134.793
G1 F1650 X145.083 Y134.353 E12.58226
G1 X145.783 Y134.005 E12.61866
G1 X146.5 Y133.9 E12.6524
G1 X153.582 Y133.9 E12.98217
G1 X154.38 Y134.064 E13.0201
G1 X155.004 Y134.392 E13.05293
G1 X155.783 Y134.005 E13.09343
G1 X156.5 Y133.9 E13.12717
G1 X163.582 Y133.9 E13.45694
G1 X164.378 Y134.063 E13.49478
G1 X165.082 Y134.434 E13.53183
G1 X165.207 Y134.537 E13.53937
G1 X165.647 Y135.083 E13.57202
G1 X165.995 Y135.783 E13.60842
G1 X166.1 Y136.5 E13.64217
G1 X166.1 Y143.582 E13.97194
G1 X165.936 Y144.38 E14.00987
G1 X165.608 Y145.004 E14.0427
G1 X165.995 Y145.783 E14.0832
G1 X166.1 Y146.5 E14.11694
G1 X166.1 Y153.582 E14.44671
G1 X165.937 Y154.378 E14.48454
G1 X165.566 Y155.082 E14.5216
G1 X165.463 Y155.207 E14.52914
G1 X164.917 Y155.647 E14.56179
G1 X164.217 Y155.995 E14.59819
G1 X163.5 Y156.1 E14.63193
G1 X156.368 Y156.1 E14.96403
G1 X155.61 Y155.934 E15.00016
G1 X154.999 Y155.606 E15.03245
G1 X154.217 Y155.995 E15.07312
G1 X153.5 Y156.1 E15.10687
G1 X146.368 Y156.1 E15.43896
G1 X145.61 Y155.934 E15.47509
G1 X144.834 Y155.518 E15.51609
G1 X144.354 Y154.92 E15.5518
G1 X144.005 Y154.217 E15.58835
G1 X143.9 Y153.5 E15.62209
G1 X143.9 Y146.418 E15.95186
G1 X144.064 Y145.62 E15.98979
G1 X144.392 Y144.996 E16.02262
G1 X144.005 Y144.217 E16.06312
G1 X143.9 Y143.5 E16.09686
G1 X143.9 Y136.418 E16.42663
G1 X144.063 Y135.622 E16.46446
G1 X144.434 Y134.918 E16.50152
G1 X144.537 Y134.793 E16.50906
G0 F3900 X144.788 Y135.104
G1 F1650 X145.299 Y134.692 E16.53962
G1 X145.905 Y134.391 E16.57113
G1 X146.5 Y134.3 E16.59916
G1 X153.541 Y134.3 E16.92702
G1 X154.243 Y134.444 E16.96039
G1 X154.757 Y134.715 E16.98744
G1 X154.997 Y134.93 E17.00245
G1 X155.299 Y134.692 E17.02035
G1 X155.905 Y134.391 E17.05186
G1 X156.5 Y134.3 E17.07989
G1 X163.541 Y134.3 E17.40775
G1 X164.243 Y134.444 E17.44111
G1 X164.896 Y134.788 E17.47548
G1 X165.308 Y135.299 E17.50605
G1 X165.609 Y135.905 E17.53755
G1 X165.7 Y136.5 E17.56558
G1 X165.7 Y143.541 E17.89344
G1 X165.556 Y144.243 E17.92681
G1 X165.285 Y144.757 E17.95387
G1 X165.07 Y144.997 E17.96887
G1 X165.308 Y145.299 E17.98677
G1 X165.609 Y145.905 E18.01828
G1 X165.7 Y146.5 E18.04631
G1 X165.7 Y153.541 E18.37417
G1 X165.556 Y154.243 E18.40754
G1 X165.212 Y154.896 E18.4419
G1 X164.701 Y155.308 E18.47247
G1 X164.095 Y155.609 E18.50397
G1 X163.5 Y155.7 E18.532
G1 X156.413 Y155.7 E18.862
G1 X155.747 Y155.554 E18.89375
G1 X155.228 Y155.275 E18.92119
G1 X155.001 Y155.072 E18.93537
G1 X154.701 Y155.308 E18.95314
G1 X154.095 Y155.609 E18.98465
G1 X153.5 Y155.7 E19.01268
G1 X146.413 Y155.7 E19.34268
G1 X145.747 Y155.554 E19.37443
G1 X145.097 Y155.205 E19.40878
G1 X144.692 Y154.701 E19.43889
G1 X144.391 Y154.095 E19.47039
G1 X144.3 Y153.5 E19.49842
G1 X144.3 Y146.459 E19.82628
G1 X144.444 Y145.757 E19.85965
G1 X144.715 Y145.243 E19.8867
G1 X144.93 Y145.003 E19.90171
G1 X144.692 Y144.701 E19.91961
G1 X144.391 Y144.095 E19.95112
G1 X144.3 Y143.5 E19.97915
G1 X144.3 Y136.459 E20.30701
G1 X144.444 Y135.757 E20.34038
G1 X144.788 Y135.104 E20.37474
G0 F3900 X145.105 Y135.362
G1 F1650 X145.477 Y135.05 E20.39735
G1 X146.026 Y134.777 E20.4259
G1 X146.5 Y134.7 E20.44826
G1 X153.5 Y134.7 E20.77421
G1 X154.106 Y134.824 E20.80301
G1 X154.57 Y135.069 E20.82745
G1 X154.889 Y135.387 E20.84842
G1 X154.996 Y135.569 E20.85825
G1 X155.155 Y135.32 E20.87201
G1 X155.477 Y135.05 E20.89157
G1 X156.026 Y134.777 E20.92012
G1 X156.5 Y134.7 E20.94249
G1 X163.5 Y134.7 E21.26843
G1 X164.106 Y134.824 E21.29724
G1 X164.638 Y135.105 E21.32525
G1 X164.95 Y135.477 E21.34786
G1 X165.223 Y136.026 E21.37641
G1 X165.3 Y136.5 E21.39877
G1 X165.3 Y143.5 E21.72472
G1 X165.176 Y144.106 E21.75352
G1 X164.931 Y144.57 E21.77796
G1 X164.613 Y144.889 E21.79893
G1 X164.431 Y144.996 E21.80876
G1 X164.68 Y145.155 E21.82252
G1 X164.95 Y145.477 E21.84208
G1 X165.223 Y146.026 E21.87063
G1 X165.3 Y146.5 E21.89299
G1 X165.3 Y153.5 E22.21894
G1 X165.176 Y154.106 E22.24775
G1 X164.895 Y154.638 E22.27576
G1 X164.523 Y154.95 E22.29837
G1 X163.974 Y155.223 E22.32692
G1 X163.5 Y155.3 E22.34928
G1 X156.458 Y155.3 E22.67719
G1 X155.884 Y155.174 E22.70455
G1 X155.417 Y154.923 E22.72924
G1 X155.111 Y154.613 E22.74952
G1 X155.004 Y154.431 E22.75935
G1 X154.845 Y154.68 E22.77311
G1 X154.523 Y154.95 E22.79267
G1 X153.974 Y155.223 E22.82122
G1 X153.5 Y155.3 E22.84359
G1 X146.458 Y155.3 E23.17149
G1 X145.884 Y155.174 E23.19885
G1 X145.359 Y154.892 E23.2266
G1 X145.05 Y154.523 E23.24901
G1 X144.777 Y153.974 E23.27756
G1 X144.7 Y153.5 E23.29993
G1 X144.7 Y146.5 E23.62588
G1 X144.824 Y145.894 E23.65468
G1 X145.069 Y145.43 E23.67911
G1 X145.387 Y145.111 E23.70008
G1 X145.569 Y145.004 E23.70991
G1 X145.32 Y144.845 E23.72367
G1 X145.05 Y144.523 E23.74324
G1 X144.777 Y143.974 E23.77179
G1 X144.7 Y143.5 E23.79415
G1 X144.7 Y136.5 E24.1201
G1 X144.824 Y135.894 E24.1489
G1 X145.105 Y135.362 E24.17692
G1 F2700 E21.17692
G1 F600 Z0.68
G0 F3900 X145.105 Y135.362 Z0.68
G0 X154.431 Y144.996
G1 F600 Z0.28
G1 F2700 E24.17692
G1 F1650 X154.68 Y145.155 E24.19067
G1 X154.996 Y145.569 E24.21492
G1 X155.155 Y145.32 E24.22868
G1 X155.563 Y145.007 E24.25263
G1 X155.32 Y144.845 E24.26623
G1 X155.004 Y144.431 E24.29048
G1 X154.845 Y144.68 E24.30423
G1 X154.431 Y144.996 E24.32849
G0 F3900 X154.345 Y144.592
G1 F1650 X153.851 Y144.838 E24.35418
G1 X153.5 Y144.9 E24.37078
G1 X146.5 Y144.9 E24.69673
G1 X146.081 Y144.822 E24.71657
G1 X145.617 Y144.577 E24.74101
G1 X145.408 Y144.345 E24.75555
G1 X145.162 Y143.851 E24.78124
G1 X145.1 Y143.5 E24.79784
G1 X145.1 Y136.5 E25.12379
G1 X145.178 Y136.081 E25.14364
G1 X145.423 Y135.617 E25.16807
G1 X145.655 Y135.408 E25.18261
G1 X146.149 Y135.162 E25.20831
G1 X146.5 Y135.1 E25.2249
G1 X153.5 Y135.1 E25.55085
G1 X153.919 Y135.178 E25.5707
G1 X154.383 Y135.423 E25.59513
G1 X154.592 Y135.655 E25.60967
G1 X154.838 Y136.149 E25.63537
G1 X154.9 Y136.5 E25.65196
G1 X154.9 Y143.5 E25.97791
G1 X154.822 Y143.919 E25.99776
G1 X154.577 Y144.383 E26.02219
G1 X154.345 Y144.592 E26.03673
G0 F3900 X153.919 Y145.178
G1 F1650 X154.383 Y145.423 E26.06116
G1 X154.592 Y145.655 E26.0757
G1 X154.838 Y146.149 E26.1014
G1 X154.9 Y146.5 E26.118
G1 X154.9 Y153.5 E26.44395
G1 X154.822 Y153.919 E26.46379
G1 X154.577 Y154.383 E26.48823
G1 X154.345 Y154.592 E26.50277
G1 X153.851 Y154.838 E26.52846
G1 X153.5 Y154.9 E26.54506
G1 X146.458 Y154.9 E26.87297
G1 X145.977 Y154.785 E26.89599
G1 X145.617 Y154.577 E26.91535
G1 X145.408 Y154.345 E26.92989
G1 X145.162 Y153.851 E26.95559
G1 X145.1 Y153.5 E26.97219
G1 X145.1 Y146.5 E27.29814
G1 X145.178 Y146.081 E27.31798
G1 X145.423 Y145.617 E27.34242
G1 X145.655 Y145.408 E27.35696
G1 X146.149 Y145.162 E27.38265
G1 X146.5 Y145.1 E27.39925
G1 X153.5 Y145.1 E27.7252
G1 X153.919 Y145.178 E27.74504
G1 F2700 E24.74504
G1 F600 Z0.68
G0 F3900 X153.919 Y145.178 Z0.68
G0 X155.178 Y146.081
G1 F600 Z0.28
G1 F2700 E27.74504
G1 F1650 X155.1 Y146.5 E27.76489
G1 X155.1 Y153.5 E28.09084
G1 X155.162 Y153.851 E28.10744
G1 X155.408 Y154.345 E28.13313
G1 X155.617 Y154.577 E28.14767
G1 X155.977 Y154.785 E28.16703
G1 X156.458 Y154.9 E28.19006
G1 X163.5 Y154.9 E28.51797
G1 X163.851 Y154.838 E28.53456
G1 X164.345 Y154.592 E28.56026
G1 X164.577 Y154.383 E28.5748
G1 X164.822 Y153.919 E28.59923
G1 X164.9 Y153.5 E28.61908
G1 X164.9 Y146.5 E28.94503
G1 X164.838 Y146.149 E28.96163
G1 X164.592 Y145.655 E28.98732
G1 X164.383 Y145.423 E29.00186
G1 X163.919 Y145.178 E29.0263
G1 X163.5 Y145.1 E29.04614
G1 X156.5 Y145.1 E29.37209
G1 X156.149 Y145.162 E29.38869
G1 X155.655 Y145.408 E29.41438
G1 X155.423 Y145.617 E29.42893
G1 X155.178 Y146.081 E29.45336
G0 F3900 X154.446 Y146.227
G1 F1650 X154.24 Y145.845 E29.47357
G1 X154.101 Y145.707 E29.48269
G1 X153.838 Y145.57 E29.4965
G1 X153.5 Y145.5 E29.51257
G1 X146.5 Y145.5 E29.83852
G1 X146.227 Y145.554 E29.85148
G1 X145.845 Y145.76 E29.87169
G1 X145.707 Y145.899 E29.88081
G1 X145.57 Y146.162 E29.89461
G1 X145.5 Y146.5 E29.91069
G1 X145.5 Y153.5 E30.23664
G1 X145.554 Y153.773 E30.24959
G1 X145.76 Y154.155 E30.2698
G1 X145.899 Y154.293 E30.27892
G1 X146.162 Y154.43 E30.29273
G1 X146.5 Y154.5 E30.3088
G1 X153.5 Y154.5 E30.63475
G1 X153.773 Y154.446 E30.64771
G1 X154.155 Y154.24 E30.66792
G1 X154.293 Y154.101 E30.67704
G1 X154.43 Y153.838 E30.69085
G1 X154.5 Y153.5 E30.70692
G1 X154.5 Y146.5 E31.03287
G1 X154.446 Y146.227 E31.04583
G0 F3900 X153.7 Y146.5
G1 F1650 X153.7 Y153.5 E31.37178
G1 X153.661 Y153.619 E31.37761
G1 X153.5 Y153.7 E31.386
G1 X146.5 Y153.7 E31.71195
G1 X146.381 Y153.661 E31.71778
G1 X146.3 Y153.5 E31.72618
G1 X146.3 Y146.5 E32.05213
G1 X146.339 Y146.381 E32.05796
G1 X146.5 Y146.3 E32.06635
G1 X153.5 Y146.3 E32.3923
G1 X153.619 Y146.339 E32.39813
G1 X153.7 Y146.5 E32.40652
G0 F3900 X154.057 Y146.32
G1 F1650 X153.896 Y146.05 E32.42116
G1 X153.744 Y145.959 E32.42941
G1 X153.5 Y145.9 E32.4411
G1 X146.5 Y145.9 E32.76705
G1 X146.32 Y145.943 E32.77566
G1 X146.05 Y146.104 E32.7903
G1 X145.959 Y146.256 E32.79855
G1 X145.9 Y146.5 E32.81024
G1 X145.9 Y153.5 E33.13619
G1 X145.943 Y153.68 E33.14481
G1 X146.104 Y153.95 E33.15944
G1 X146.256 Y154.041 E33.16769
G1 X146.5 Y154.1 E33.17938
G1 X153.5 Y154.1 E33.50533
G1 X153.68 Y154.057 E33.51395
G1 X153.95 Y153.896 E33.52859
G1 X154.041 Y153.744 E33.53684
G1 X154.1 Y153.5 E33.54853
G1 X154.1 Y146.5 E33.87448
G1 X154.057 Y146.32 E33.88309
G1 F2700 E30.88309
G1 F600 Z0.68
G0 F3900 X154.057 Y146.32 Z0.68
G0 X155.977 Y144.785
G1 F600 Z0.28
G1 F2700 E33.88309
G1 F1650 X155.617 Y144.577 E33.90245
G1 X155.408 Y144.345 E33.91699
G1 X155.162 Y143.851 E33.94269
G1 X155.1 Y143.5 E33.95929
G1 X155.1 Y136.5 E34.28524
G1 X155.178 Y136.081 E34.30508
G1 X155.423 Y135.617 E34.32951
G1 X155.655 Y135.408 E34.34405
G1 X156.149 Y135.162 E34.36975
G1 X156.5 Y135.1 E34.38635
G1 X163.5 Y135.1 E34.7123
G1 X163.919 Y135.178 E34.73214
G1 X164.383 Y135.423 E34.75658
G1 X164.592 Y135.655 E34.77112
G1 X164.838 Y136.149 E34.79681
G1 X164.9 Y136.5 E34.81341
G1 X164.9 Y143.5 E35.13936
G1 X164.822 Y143.919 E35.1592
G1 X164.577 Y144.383 E35.18364
G1 X164.345 Y144.592 E35.19818
G1 X163.851 Y144.838 E35.22387
G1 X163.5 Y144.9 E35.24047
G1 X156.458 Y144.9 E35.56838
G1 X155.977 Y144.785 E35.59141
G0 F3900 X156.162 Y144.43
G1 F1650 X155.899 Y144.293 E35.60521
G1 X155.76 Y144.155 E35.61433
G1 X155.554 Y143.773 E35.63454
G1 X155.5 Y143.5 E35.6475
G1 X155.5 Y136.5 E35.97345
G1 X155.57 Y136.162 E35.98952
G1 X155.707 Y135.899 E36.00333
G1 X155.845 Y135.76 E36.01245
G1 X156.227 Y135.554 E36.03266
G1 X156.5 Y135.5 E36.04562
G1 X163.5 Y135.5 E36.37157
G1 X163.838 Y135.57 E36.38764
G1 X164.101 Y135.707 E36.40145
G1 X164.24 Y135.845 E36.41057
G1 X164.446 Y136.227 E36.43078
G1 X164.5 Y136.5 E36.44374
G1 X164.5 Y143.5 E36.76969
G1 X164.43 Y143.838 E36.78576
G1 X164.293 Y144.101 E36.79957
G1 X164.155 Y144.24 E36.80869
G1 X163.773 Y144.446 E36.8289
G1 X163.5 Y144.5 E36.84186
G1 X156.5 Y144.5 E37.16781
G1 X156.162 Y144.43 E37.18388
G0 F3900 X156.381 Y143.661
G1 F1650 X156.3 Y143.5 E37.19227
G1 X156.3 Y136.5 E37.51822
G1 X156.339 Y136.381 E37.52405
G1 X156.5 Y136.3 E37.53244
G1 X163.5 Y136.3 E37.85839
G1 X163.619 Y136.339 E37.86422
G1 X163.7 Y136.5 E37.87262
G1 X163.7 Y143.5 E38.19856
G1 X163.661 Y143.619 E38.2044
