;FLAVOR:Marlin
;TIME:1479
;Filament used: 1.2342m
;Layer height: 0.28
;MINX:0
;MINY:0
;MINZ:0.28
;MAXX:161.3
;MAXY:161.3
;MAXZ:32.32
;TARGET_MACHINE.NAME:Hellbot Magna SE 300
;Generated with Cura_SteamEngine 5.11.0
M140 S60
M105
M190 S60
M104 S210
M105
M109 S210
G28 ;Home
G1 Z15.0 F6000 ;Move the platform down 15mm
;Prime the extruder
G92 E0
G1 F200 E3
G92 E0
M82 ;absolute extrusion mode
G92 E0
G92 E0
G1 F2700 E-3
;LAYER_COUNT:114
;LAYER:0
M107
G1 F600 Z0.68
G0 F3600 X0.00 Y0.00 Z0.68
G0 X130.89 Y131.052
;TYPE:SKIRT
G1 F600 Z0.28
G1 F2700 E0
G1 F1500 X132.243 Y129.96 E0.08096
G1 X134.224 Y128.974 E0.184
G1 X136.026 Y128.732 E0.26866
G1 X144.11 Y128.7 E0.64509
G1 X144.946 Y128.871 E0.68482
G1 X145.975 Y128.735 E0.73315
G1 X154.111 Y128.7 E1.112
G1 X156.18 Y129.123 E1.21034
G1 X157.95 Y130.117 E1.30486
G1 X158.948 Y130.89 E1.36364
G1 X160.04 Y132.243 E1.4446
G1 X161.026 Y134.224 E1.54764
G1 X161.268 Y136.026 E1.6323
G1 X161.3 Y144.11 E2.00873
G1 X161.129 Y144.946 E2.04847
G1 X161.265 Y145.975 E2.0968
G1 X161.3 Y154.111 E2.47565
G1 X160.877 Y156.18 E2.57398
G1 X159.883 Y157.95 E2.66851
G1 X159.11 Y158.948 E2.72729
G1 X157.757 Y160.04 E2.80825
G1 X155.776 Y161.026 E2.91129
G1 X153.974 Y161.268 E2.99595
G1 X145.803 Y161.3 E3.37643
G1 X145.013 Y161.13 E3.41406
G1 X143.974 Y161.268 E3.46286
G1 X135.792 Y161.3 E3.84385
G1 X133.784 Y160.861 E3.93956
G1 X131.996 Y159.861 E4.03495
G1 X131.053 Y159.122 E4.09074
G1 X129.972 Y157.776 E4.17113
G1 X128.974 Y155.76 E4.27587
G1 X128.752 Y154.254 E4.34676
G1 X128.7 Y145.89 E4.73623
G1 X128.871 Y145.054 E4.77596
G1 X128.735 Y144.025 E4.82429
G1 X128.7 Y135.889 E5.20314
G1 X129.123 Y133.82 E5.30148
G1 X130.117 Y132.05 E5.396
G1 X130.89 Y131.052 E5.45478
G0 F3600 X131.178 Y131.333
G1 F1500 X132.46 Y130.299 E5.53147
G1 X134.343 Y129.361 E5.62943
G1 X136.028 Y129.132 E5.70861
G1 X144.07 Y129.1 E6.08309
G1 X144.933 Y129.277 E6.12411
G1 X146.028 Y129.132 E6.17554
G1 X154.071 Y129.1 E6.55006
G1 X156.04 Y129.503 E6.64364
G1 X157.705 Y130.433 E6.73245
G1 X158.667 Y131.178 E6.7891
G1 X159.701 Y132.46 E6.8658
G1 X160.639 Y134.343 E6.96375
G1 X160.868 Y136.028 E7.04294
G1 X160.9 Y144.07 E7.41741
G1 X160.723 Y144.933 E7.45843
G1 X160.868 Y146.028 E7.50986
G1 X160.9 Y154.071 E7.88438
G1 X160.497 Y156.04 E7.97797
G1 X159.567 Y157.705 E8.06677
G1 X158.822 Y158.667 E8.12343
G1 X157.54 Y159.701 E8.20012
G1 X155.657 Y160.639 E8.29808
G1 X153.972 Y160.868 E8.37726
G1 X145.844 Y160.9 E8.75573
G1 X145.029 Y160.724 E8.79456
G1 X143.972 Y160.868 E8.84423
G1 X135.836 Y160.9 E9.22308
G1 X133.927 Y160.482 E9.31408
G1 X132.243 Y159.546 E9.40379
G1 X131.337 Y158.836 E9.45739
G1 X130.308 Y157.555 E9.5339
G1 X129.361 Y155.642 E9.63329
G1 X129.148 Y154.196 E9.70135
G1 X129.1 Y145.93 E10.08626
G1 X129.277 Y145.067 E10.12728
G1 X129.132 Y143.972 E10.17871
G1 X129.1 Y135.929 E10.55323
G1 X129.503 Y133.96 E10.64682
G1 X130.433 Y132.295 E10.73562
G1 X131.178 Y131.333 E10.79228
G0 F3600 X131.466 Y131.614
G1 F1500 X132.677 Y130.638 E10.8647
G1 X134.462 Y129.748 E10.95758
G1 X136.03 Y129.532 E11.03128
G1 X144.03 Y129.5 E11.40379
G1 X144.918 Y129.682 E11.446
G1 X146.03 Y129.532 E11.49825
G1 X154.031 Y129.5 E11.87081
G1 X155.899 Y129.882 E11.9596
G1 X157.46 Y130.749 E12.04274
G1 X158.386 Y131.466 E12.09728
G1 X159.362 Y132.677 E12.1697
G1 X160.252 Y134.462 E12.26257
G1 X160.468 Y136.03 E12.33628
G1 X160.5 Y144.03 E12.70879
G1 X160.318 Y144.918 E12.751
G1 X160.468 Y146.03 E12.80325
G1 X160.5 Y154.031 E13.17581
G1 X160.118 Y155.899 E13.26459
G1 X159.251 Y157.46 E13.34774
G1 X158.534 Y158.386 E13.40227
G1 X157.323 Y159.362 E13.4747
G1 X155.538 Y160.252 E13.56757
G1 X153.97 Y160.468 E13.64127
G1 X145.887 Y160.5 E14.01766
G1 X145.045 Y160.318 E14.05777
G1 X143.97 Y160.468 E14.10831
G1 X135.88 Y160.5 E14.48502
G1 X134.068 Y160.103 E14.57139
G1 X132.49 Y159.231 E14.65534
G1 X131.621 Y158.55 E14.70675
G1 X130.644 Y157.334 E14.77939
G1 X129.748 Y155.524 E14.87343
G1 X129.544 Y154.138 E14.93866
G1 X129.5 Y145.97 E15.319
G1 X129.682 Y145.082 E15.36121
G1 X129.532 Y143.97 E15.41346
G1 X129.5 Y135.969 E15.78602
G1 X129.882 Y134.101 E15.87481
G1 X130.749 Y132.54 E15.95795
G1 X131.466 Y131.614 E16.01249
G0 F3600 X131.751 Y131.898
G1 F1500 X132.897 Y130.975 E16.081
G1 X134.582 Y130.135 E16.16867
G1 X136.032 Y129.932 E16.23685
G1 X143.99 Y129.9 E16.60741
G1 X144.947 Y130.096 E16.6529
G1 X145.081 Y130.063 E16.65932
G1 X146.032 Y129.932 E16.70402
G1 X153.991 Y129.9 E17.07463
G1 X155.758 Y130.262 E17.15862
G1 X157.266 Y131.099 E17.23893
G1 X158.102 Y131.751 E17.2883
G1 X159.025 Y132.897 E17.35681
G1 X159.865 Y134.582 E17.44448
G1 X160.068 Y136.032 E17.51266
G1 X160.1 Y143.99 E17.88322
G1 X159.904 Y144.947 E17.92871
G1 X159.937 Y145.081 E17.93513
G1 X160.068 Y146.032 E17.97983
G1 X160.1 Y153.991 E18.35044
G1 X159.738 Y155.758 E18.43443
G1 X158.901 Y157.266 E18.51474
G1 X158.249 Y158.102 E18.56411
G1 X157.103 Y159.025 E18.63262
G1 X155.418 Y159.865 E18.72029
G1 X153.968 Y160.068 E18.78847
G1 X145.93 Y160.1 E19.16276
G1 X145.04 Y159.907 E19.20516
G1 X144.919 Y159.937 E19.21097
G1 X143.968 Y160.068 E19.25567
G1 X135.924 Y160.1 E19.63023
G1 X134.21 Y159.724 E19.71194
G1 X132.737 Y158.916 E19.79017
G1 X131.905 Y158.264 E19.83939
G1 X130.983 Y157.117 E19.90792
G1 X130.135 Y155.403 E19.99696
G1 X129.94 Y154.08 E20.05923
G1 X129.9 Y146.01 E20.43501
G1 X130.096 Y145.053 E20.4805
G1 X130.063 Y144.919 E20.48692
G1 X129.932 Y143.968 E20.53162
G1 X129.9 Y136.009 E20.90223
G1 X130.262 Y134.242 E20.98622
G1 X131.099 Y132.734 E21.06653
G1 X131.751 Y131.898 E21.1159
G0 F3600 X132.035 Y132.183
G1 F1500 X133.117 Y131.312 E21.18057
G1 X134.702 Y130.522 E21.26304
G1 X136.034 Y130.332 E21.32569
G1 X143.95 Y130.3 E21.69429
G1 X144.959 Y130.507 E21.74226
G1 X145.137 Y130.459 E21.75084
G1 X146.034 Y130.332 E21.79303
G1 X153.951 Y130.3 E22.16168
G1 X155.617 Y130.642 E22.24087
G1 X157.072 Y131.449 E22.31834
G1 X157.817 Y132.035 E22.36248
G1 X158.688 Y133.117 E22.42716
G1 X159.478 Y134.702 E22.50962
G1 X159.668 Y136.034 E22.57227
G1 X159.7 Y143.95 E22.94088
G1 X159.493 Y144.959 E22.98884
G1 X159.541 Y145.137 E22.99743
G1 X159.668 Y146.034 E23.03961
G1 X159.7 Y153.951 E23.40826
G1 X159.358 Y155.617 E23.48746
G1 X158.551 Y157.072 E23.56493
G1 X157.965 Y157.817 E23.60907
G1 X156.883 Y158.688 E23.67374
G1 X155.298 Y159.478 E23.75621
G1 X153.966 Y159.668 E23.81886
G1 X145.973 Y159.7 E24.19105
G1 X145.031 Y159.496 E24.23593
G1 X144.863 Y159.541 E24.24403
G1 X143.966 Y159.668 E24.28621
G1 X135.968 Y159.7 E24.65864
G1 X134.349 Y159.345 E24.73581
G1 X132.984 Y158.601 E24.8082
G1 X132.186 Y157.976 E24.8554
G1 X131.321 Y156.899 E24.91972
G1 X130.522 Y155.285 E25.00358
G1 X130.336 Y154.022 E25.06303
G1 X130.3 Y146.05 E25.43424
G1 X130.507 Y145.041 E25.4822
G1 X130.459 Y144.863 E25.49079
G1 X130.332 Y143.966 E25.53297
G1 X130.3 Y136.049 E25.90162
G1 X130.642 Y134.383 E25.98082
G1 X131.449 Y132.928 E26.05829
G1 X132.035 Y132.183 E26.10243
G0 F3600 X132.32 Y132.468
G1 F1500 X133.335 Y131.651 E26.1631
G1 X134.823 Y130.909 E26.24052
G1 X136.036 Y130.732 E26.2976
G1 X143.91 Y130.7 E26.66425
G1 X144.977 Y130.919 E26.71497
G1 X145.195 Y130.855 E26.72555
G1 X146.036 Y130.732 E26.76513
G1 X153.91 Y130.7 E27.13178
G1 X155.477 Y131.022 E27.20627
G1 X156.878 Y131.799 E27.28087
G1 X157.532 Y132.32 E27.3198
G1 X158.349 Y133.335 E27.38047
G1 X159.091 Y134.823 E27.4579
G1 X159.268 Y136.036 E27.51498
G1 X159.3 Y143.91 E27.88163
G1 X159.081 Y144.977 E27.93235
G1 X159.145 Y145.195 E27.94293
G1 X159.268 Y146.036 E27.9825
G1 X159.3 Y153.91 E28.34915
G1 X158.978 Y155.477 E28.42364
G1 X158.201 Y156.878 E28.49824
G1 X157.68 Y157.532 E28.53718
G1 X156.665 Y158.349 E28.59785
G1 X155.177 Y159.091 E28.67527
G1 X153.964 Y159.268 E28.73235
G1 X146.016 Y159.3 E29.10245
G1 X145.017 Y159.083 E29.15005
G1 X144.805 Y159.145 E29.16034
G1 X143.964 Y159.268 E29.19991
G1 X136.012 Y159.3 E29.57019
G1 X134.489 Y158.966 E29.6428
G1 X133.231 Y158.286 E29.70938
G1 X132.47 Y157.69 E29.75439
G1 X131.657 Y156.678 E29.81484
G1 X130.909 Y155.167 E29.89335
G1 X130.732 Y153.964 E29.94997
G1 X130.7 Y146.09 E30.31662
G1 X130.919 Y145.023 E30.36734
G1 X130.855 Y144.805 E30.37792
G1 X130.732 Y143.964 E30.41749
G1 X130.7 Y136.09 E30.78414
G1 X131.022 Y134.523 E30.85863
G1 X131.799 Y133.122 E30.93323
G1 X132.32 Y132.468 E30.97217
G0 F3600 X132.604 Y132.754
G1 F1500 X133.555 Y131.988 E31.02903
G1 X134.943 Y131.296 E31.10124
G1 X136.094 Y131.128 E31.15541
G1 X143.869 Y131.1 E31.51745
G1 X144.998 Y131.332 E31.57112
G1 X145.253 Y131.251 E31.58357
G1 X146.094 Y131.128 E31.62315
G1 X153.869 Y131.1 E31.98519
G1 X155.338 Y131.402 E32.05502
G1 X156.629 Y132.112 E32.12363
G1 X157.246 Y132.604 E32.16038
G1 X158.012 Y133.555 E32.21724
G1 X158.704 Y134.943 E32.28945
G1 X158.872 Y136.094 E32.34362
G1 X158.9 Y143.869 E32.70566
G1 X158.668 Y144.998 E32.75933
G1 X158.749 Y145.253 E32.77178
G1 X158.872 Y146.094 E32.81136
G1 X158.9 Y153.869 E33.1734
G1 X158.598 Y155.338 E33.24323
G1 X157.888 Y156.629 E33.31184
G1 X157.396 Y157.246 E33.34859
G1 X156.445 Y158.012 E33.40545
G1 X155.057 Y158.704 E33.47766
G1 X153.906 Y158.872 E33.53183
G1 X146.059 Y158.9 E33.89722
G1 X144.999 Y158.669 E33.94774
G1 X144.747 Y158.749 E33.96005
G1 X143.906 Y158.872 E33.99962
G1 X136.056 Y158.9 E34.36516
G1 X134.63 Y158.587 E34.43314
G1 X133.478 Y157.971 E34.49397
G1 X132.754 Y157.404 E34.53679
G1 X131.993 Y156.457 E34.59336
G1 X131.296 Y155.049 E34.66651
G1 X131.128 Y153.906 E34.72031
G1 X131.1 Y146.131 E35.08235
G1 X131.332 Y145.002 E35.13602
G1 X131.251 Y144.747 E35.14847
G1 X131.128 Y143.906 E35.18805
G1 X131.1 Y136.131 E35.55009
G1 X131.402 Y134.662 E35.61992
G1 X132.112 Y133.371 E35.68853
G1 X132.604 Y132.754 E35.72527
G0 F3600 X132.89 Y133.037
G1 F1500 X133.771 Y132.327 E35.77796
G1 X135.063 Y131.683 E35.84518
G1 X136.152 Y131.524 E35.89643
G1 X143.828 Y131.5 E36.25386
G1 X145.025 Y131.746 E36.31076
G1 X145.311 Y131.647 E36.32485
G1 X146.152 Y131.524 E36.36443
G1 X153.828 Y131.5 E36.72186
G1 X155.2 Y131.782 E36.78708
G1 X156.38 Y132.425 E36.84965
G1 X156.963 Y132.89 E36.88438
G1 X157.673 Y133.771 E36.93706
G1 X158.317 Y135.063 E37.00428
G1 X158.476 Y136.152 E37.05553
G1 X158.5 Y143.828 E37.41296
G1 X158.254 Y145.025 E37.46986
G1 X158.353 Y145.311 E37.48395
G1 X158.476 Y146.152 E37.52353
G1 X158.5 Y153.828 E37.88096
G1 X158.218 Y155.2 E37.94618
G1 X157.575 Y156.38 E38.00875
G1 X157.11 Y156.963 E38.04348
G1 X156.229 Y157.673 E38.09616
G1 X154.937 Y158.317 E38.16339
G1 X153.848 Y158.476 E38.21463
G1 X146.102 Y158.5 E38.57532
G1 X144.975 Y158.254 E38.62903
G1 X144.689 Y158.353 E38.64313
G1 X143.848 Y158.476 E38.6827
G1 X136.1 Y158.5 E39.04348
G1 X134.77 Y158.208 E39.10689
G1 X133.667 Y157.618 E39.16514
G1 X133.039 Y157.119 E39.20249
G1 X132.329 Y156.236 E39.25524
G1 X131.683 Y154.931 E39.32305
G1 X131.524 Y153.848 E39.37402
G1 X131.5 Y146.172 E39.73145
G1 X131.746 Y144.975 E39.78835
G1 X131.647 Y144.689 E39.80244
G1 X131.524 Y143.848 E39.84202
G1 X131.5 Y136.172 E40.19945
G1 X131.782 Y134.8 E40.26467
G1 X132.425 Y133.62 E40.32724
G1 X132.89 Y133.037 E40.36197
G0 F3600 X133.174 Y133.322
G1 F1500 X133.991 Y132.664 E40.41081
G1 X135.183 Y132.07 E40.47283
G1 X136.21 Y131.92 E40.52116
G1 X143.788 Y131.9 E40.87402
G1 X144.835 Y132.115 E40.92379
G1 X145.01 Y132.178 E40.93245
G1 X145.369 Y132.043 E40.95031
G1 X146.21 Y131.92 E40.98989
G1 X153.787 Y131.9 E41.34271
G1 X155.062 Y132.162 E41.40332
G1 X156.131 Y132.738 E41.45986
G1 X156.678 Y133.174 E41.49243
G1 X157.336 Y133.991 E41.54128
G1 X157.93 Y135.183 E41.60329
G1 X158.08 Y136.21 E41.65162
G1 X158.1 Y143.788 E42.00449
G1 X157.885 Y144.835 E42.05426
G1 X157.822 Y145.01 E42.06292
G1 X157.957 Y145.369 E42.08078
G1 X158.08 Y146.21 E42.12035
G1 X158.1 Y153.787 E42.47317
G1 X157.838 Y155.062 E42.53378
G1 X157.262 Y156.131 E42.59032
G1 X156.826 Y156.678 E42.6229
G1 X156.009 Y157.336 E42.67174
G1 X154.817 Y157.93 E42.73376
G1 X153.79 Y158.08 E42.78209
G1 X146.145 Y158.1 E43.13807
G1 X145.18 Y157.889 E43.18407
G1 X144.997 Y157.819 E43.19319
G1 X144.631 Y157.957 E43.2114
G1 X143.79 Y158.08 E43.25098
G1 X136.144 Y158.1 E43.60701
G1 X134.91 Y157.829 E43.66584
G1 X133.856 Y157.265 E43.72151
G1 X133.325 Y156.836 E43.75329
G1 X132.665 Y156.015 E43.80234
G1 X132.07 Y154.813 E43.86479
G1 X131.92 Y153.79 E43.91294
G1 X131.9 Y146.212 E44.2658
G1 X132.115 Y145.165 E44.31557
G1 X132.178 Y144.99 E44.32423
G1 X132.043 Y144.631 E44.34209
G1 X131.92 Y143.79 E44.38167
G1 X131.9 Y136.213 E44.73449
G1 X132.162 Y134.938 E44.7951
G1 X132.738 Y133.869 E44.85164
G1 X133.174 Y133.322 E44.88421
G0 F3600 X133.456 Y133.609
G1 F1500 X134.211 Y133.001 E44.92935
G1 X135.303 Y132.457 E44.98616
G1 X136.268 Y132.316 E45.03157
G1 X143.747 Y132.3 E45.37983
G1 X144.755 Y132.507 E45.42774
G1 X145.011 Y132.611 E45.44061
G1 X145.427 Y132.439 E45.46157
G1 X146.268 Y132.316 E45.50115
G1 X153.746 Y132.3 E45.84935
G1 X154.924 Y132.542 E45.90535
G1 X155.941 Y133.09 E45.95915
G1 X156.391 Y133.456 E45.98616
G1 X156.999 Y134.211 E46.03129
G1 X157.543 Y135.303 E46.0881
G1 X157.684 Y136.268 E46.13351
G1 X157.7 Y143.747 E46.48177
G1 X157.493 Y144.755 E46.52968
G1 X157.389 Y145.011 E46.54255
G1 X157.561 Y145.427 E46.56351
G1 X157.684 Y146.268 E46.60309
G1 X157.7 Y153.746 E46.9513
G1 X157.458 Y154.924 E47.00729
G1 X156.91 Y155.941 E47.06109
G1 X156.544 Y156.391 E47.0881
G1 X155.789 Y156.999 E47.13324
G1 X154.697 Y157.543 E47.19004
G1 X153.732 Y157.684 E47.23546
G1 X146.189 Y157.7 E47.58669
G1 X145.266 Y157.498 E47.63069
G1 X144.996 Y157.386 E47.6443
G1 X144.573 Y157.561 E47.66561
G1 X143.732 Y157.684 E47.70519
G1 X136.188 Y157.7 E48.05647
G1 X135.05 Y157.45 E48.11072
G1 X134.078 Y156.93 E48.16205
G1 X133.611 Y156.552 E48.19003
G1 X133.001 Y155.794 E48.23534
G1 X132.457 Y154.695 E48.29244
G1 X132.316 Y153.732 E48.33776
G1 X132.3 Y146.253 E48.68601
G1 X132.507 Y145.245 E48.73393
G1 X132.611 Y144.989 E48.74679
G1 X132.439 Y144.573 E48.76775
G1 X132.316 Y143.732 E48.80733
G1 X132.3 Y136.254 E49.15554
G1 X132.542 Y135.076 E49.21154
G1 X133.09 Y134.059 E49.26533
G1 X133.456 Y133.609 E49.29234
G0 F3600 X133.707 Y133.921
G1 F1500 X134.431 Y133.338 E49.33562
G1 X135.423 Y132.844 E49.38723
G1 X136.326 Y132.712 E49.42972
G1 X143.706 Y132.7 E49.77336
G1 X144.675 Y132.899 E49.81943
G1 X145.012 Y133.049 E49.8366
G1 X145.485 Y132.835 E49.86078
G1 X146.326 Y132.712 E49.90035
G1 X153.705 Y132.7 E50.24395
G1 X154.786 Y132.922 E50.29534
G1 X155.694 Y133.405 E50.34323
G1 X156.079 Y133.707 E50.36601
G1 X156.662 Y134.431 E50.4093
G1 X157.156 Y135.423 E50.4609
G1 X157.288 Y136.326 E50.50339
G1 X157.3 Y143.706 E50.84704
G1 X157.101 Y144.675 E50.8931
G1 X156.951 Y145.012 E50.91028
G1 X157.165 Y145.485 E50.93445
G1 X157.288 Y146.326 E50.97403
G1 X157.3 Y153.705 E51.31762
G1 X157.078 Y154.786 E51.36901
G1 X156.595 Y155.694 E51.4169
G1 X156.293 Y156.079 E51.43969
G1 X155.569 Y156.662 E51.48297
G1 X154.577 Y157.156 E51.53457
G1 X153.674 Y157.288 E51.57707
G1 X146.233 Y157.3 E51.92355
G1 X145.352 Y157.107 E51.96555
G1 X144.995 Y156.948 E51.98374
G1 X144.515 Y157.165 E52.00827
G1 X143.674 Y157.288 E52.04785
G1 X136.233 Y157.3 E52.39433
G1 X135.19 Y157.071 E52.44406
G1 X134.267 Y156.577 E52.49281
G1 X133.898 Y156.27 E52.51516
G1 X133.339 Y155.575 E52.55669
G1 X132.844 Y154.576 E52.6086
G1 X132.712 Y153.674 E52.65105
G1 X132.7 Y146.294 E52.9947
G1 X132.899 Y145.325 E53.04076
G1 X133.049 Y144.988 E53.05793
G1 X132.835 Y144.515 E53.08211
G1 X132.712 Y143.674 E53.12169
G1 X132.7 Y136.295 E53.46528
G1 X132.922 Y135.214 E53.51667
G1 X133.405 Y134.306 E53.56456
G1 X133.707 Y133.921 E53.58734
G0 F3600 X133.958 Y134.233
G1 F1500 X134.651 Y133.675 E53.62877
G1 X135.543 Y133.231 E53.67517
G1 X136.384 Y133.108 E53.71475
G1 X143.665 Y133.1 E54.05378
G1 X144.595 Y133.291 E54.09799
G1 X145.014 Y133.494 E54.11967
G1 X145.543 Y133.231 E54.14718
G1 X146.384 Y133.108 E54.18675
G1 X153.664 Y133.1 E54.52574
G1 X154.65 Y133.302 E54.57261
G1 X155.455 Y133.726 E54.61497
G1 X155.767 Y133.958 E54.63308
G1 X156.325 Y134.651 E54.67451
G1 X156.769 Y135.543 E54.7209
G1 X156.892 Y136.384 E54.76048
G1 X156.9 Y143.665 E55.09951
