;FLAVOR:Marlin
;TIME:24073
;Filament used: 37.5978m
;Layer height: 0.28
;MINX:0
;MINY:0
;MINZ:0.28
;MAXX:278.797
;MAXY:204
;MAXZ:40.04
;TARGET_MACHINE.NAME:Hellbot Magna SE 300
;Generated with Cura_SteamEngine 5.11.0
M140 S60
M105
M190 S60
M104 S210
M105
M109 S210
G28 ;Home
G1 Z15.0 F6000 ;Move the platform down 15mm
;Prime the extruder
G92 E0
G1 F200 E3
G92 E0
M82 ;absolute extrusion mode
G92 E0
G92 E0
G1 F2700 E-3
;LAYER_COUNT:143
;LAYER:0
M107
G1 F600 Z0.68
G0 F3900 X0.00 Y0.00 Z0.68
G0 X47.931 Y96.638
;TYPE:SKIRT
G1 F600 Z0.28
G1 F2700 E0
G1 F1650 X48.923 Y96.144 E0.0516
G1 X49.826 Y96.012 E0.0941
G1 X60.205 Y96 E0.57739
G1 X61.286 Y96.222 E0.62877
G1 X62.194 Y96.705 E0.67666
G1 X62.579 Y97.007 E0.69945
G1 X63.162 Y97.731 E0.74273
G1 X63.656 Y98.723 E0.79433
G1 X63.788 Y99.626 E0.83683
G1 X63.802 Y106 E1.13363
G1 X236.2 Y105.997 E9.1612
G1 X236.2 Y99.595 E9.45931
G1 X236.422 Y98.514 E9.51069
G1 X236.905 Y97.606 E9.55858
G1 X237.207 Y97.221 E9.58137
G1 X237.931 Y96.638 E9.62465
G1 X238.923 Y96.144 E9.67625
G1 X239.826 Y96.012 E9.71875
G1 X250.205 Y96 E10.20204
G1 X251.286 Y96.222 E10.25342
G1 X252.194 Y96.705 E10.30131
G1 X252.579 Y97.007 E10.3241
G1 X253.162 Y97.731 E10.36738
G1 X253.656 Y98.723 E10.41898
G1 X253.788 Y99.626 E10.46148
G1 X253.802 Y106.001 E10.75833
G1 X272.611 Y106.04 E11.63415
G1 X273.771 Y106.23 E11.68889
G1 X274.802 Y106.615 E11.74013
G1 X275.861 Y107.215 E11.79681
G1 X276.71 Y107.903 E11.84769
G1 X277.429 Y108.668 E11.89658
G1 X278.296 Y110.167 E11.97721
G1 X278.602 Y111.212 E12.02792
G1 X278.797 Y112.669 E12.09636
G1 X278.777 Y187.852 E15.5972
G1 X278.503 Y189.163 E15.65956
G1 X278.214 Y189.939 E15.69812
G1 X277.544 Y191.118 E15.76127
G1 X276.819 Y191.993 E15.81418
G1 X276.133 Y192.628 E15.85771
G1 X274.633 Y193.496 E15.93841
G1 X273.588 Y193.802 E15.98911
G1 X272.131 Y193.997 E16.05756
G1 X253.8 Y194.003 E16.91113
G1 X253.8 Y200.405 E17.20923
G1 X253.578 Y201.486 E17.26062
G1 X253.095 Y202.394 E17.30851
G1 X252.793 Y202.779 E17.33129
G1 X252.069 Y203.362 E17.37457
G1 X251.077 Y203.856 E17.42618
G1 X250.174 Y203.988 E17.46867
G1 X239.746 Y204 E17.95424
G1 X238.704 Y203.773 E18.0039
G1 X237.806 Y203.295 E18.05127
G1 X237.421 Y202.993 E18.07405
G1 X236.838 Y202.269 E18.11734
G1 X236.344 Y201.277 E18.16894
G1 X236.212 Y200.374 E18.21143
G1 X236.198 Y194 E18.50824
G1 X63.8 Y194.003 E26.53581
G1 X63.8 Y200.405 E26.83391
G1 X63.578 Y201.486 E26.8853
G1 X63.095 Y202.394 E26.93319
G1 X62.793 Y202.779 E26.95597
G1 X62.069 Y203.362 E26.99926
G1 X61.077 Y203.856 E27.05086
G1 X60.174 Y203.988 E27.09335
G1 X49.795 Y204 E27.57664
G1 X48.714 Y203.778 E27.62803
G1 X47.806 Y203.295 E27.67592
G1 X47.421 Y202.993 E27.6987
G1 X46.838 Y202.269 E27.74199
G1 X46.344 Y201.277 E27.79359
G1 X46.212 Y200.374 E27.83608
G1 X46.198 Y193.999 E28.13293
G1 X27.389 Y193.96 E29.00876
G1 X26.229 Y193.77 E29.06349
G1 X25.198 Y193.385 E29.11474
G1 X24.139 Y192.785 E29.17142
G1 X23.29 Y192.097 E29.2223
G1 X22.571 Y191.332 E29.27119
G1 X21.704 Y189.833 E29.35182
G1 X21.398 Y188.788 E29.40252
G1 X21.203 Y187.331 E29.47097
G1 X21.223 Y112.148 E32.97181
G1 X21.497 Y110.837 E33.03417
G1 X21.786 Y110.061 E33.07273
G1 X22.456 Y108.882 E33.13587
G1 X23.181 Y108.007 E33.18879
G1 X23.867 Y107.372 E33.23231
G1 X25.367 Y106.504 E33.31301
G1 X26.412 Y106.198 E33.36371
G1 X27.869 Y106.003 E33.43216
G1 X46.2 Y105.997 E34.28573
G1 X46.2 Y99.595 E34.58384
G1 X46.422 Y98.514 E34.63522
G1 X46.905 Y97.606 E34.68311
G1 X47.207 Y97.221 E34.7059
G1 X47.931 Y96.638 E34.74918
G0 F3900 X48.151 Y96.975
G1 F1650 X49.043 Y96.531 E34.79558
G1 X49.884 Y96.408 E34.83515
G1 X60.164 Y96.4 E35.31383
G1 X61.15 Y96.602 E35.3607
G1 X61.955 Y97.026 E35.40307
G1 X62.267 Y97.258 E35.42117
G1 X62.825 Y97.951 E35.4626
G1 X63.269 Y98.843 E35.50899
G1 X63.392 Y99.684 E35.54857
G1 X63.403 Y106.4 E35.8613
G1 X236.6 Y106.397 E43.92608
G1 X236.6 Y99.636 E44.2409
G1 X236.802 Y98.65 E44.28776
G1 X237.226 Y97.845 E44.33013
G1 X237.458 Y97.533 E44.34823
G1 X238.151 Y96.975 E44.38966
G1 X239.043 Y96.531 E44.43606
G1 X239.884 Y96.408 E44.47563
G1 X250.164 Y96.4 E44.95431
G1 X251.15 Y96.602 E45.00118
G1 X251.955 Y97.026 E45.04355
G1 X252.267 Y97.258 E45.06165
G1 X252.825 Y97.951 E45.10308
G1 X253.269 Y98.843 E45.14948
G1 X253.392 Y99.684 E45.18905
G1 X253.403 Y106.4 E45.50178
G1 X272.546 Y106.435 E46.39316
G1 X273.668 Y106.619 E46.4461
G1 X274.662 Y106.99 E46.49551
G1 X275.609 Y107.526 E46.54617
G1 X276.458 Y108.214 E46.59706
G1 X277.106 Y108.908 E46.64127
G1 X277.926 Y110.326 E46.71754
G1 X278.206 Y111.266 E46.76322
G1 X278.397 Y112.669 E46.82915
G1 X278.377 Y187.81 E50.32803
G1 X278.128 Y189.023 E50.38569
G1 X277.839 Y189.799 E50.42425
G1 X277.235 Y190.864 E50.48126
G1 X276.547 Y191.699 E50.53164
G1 X275.891 Y192.306 E50.57325
G1 X274.474 Y193.126 E50.64949
G1 X273.534 Y193.406 E50.69516
G1 X272.131 Y193.597 E50.76109
G1 X253.4 Y193.603 E51.63328
G1 X253.4 Y200.364 E51.9481
G1 X253.198 Y201.35 E51.99497
G1 X252.774 Y202.155 E52.03733
G1 X252.542 Y202.467 E52.05544
G1 X251.849 Y203.025 E52.09687
G1 X250.957 Y203.469 E52.14326
G1 X250.116 Y203.592 E52.18284
G1 X239.789 Y203.6 E52.66371
G1 X238.842 Y203.394 E52.70884
G1 X238.045 Y202.974 E52.75079
G1 X237.733 Y202.742 E52.76889
G1 X237.175 Y202.049 E52.81032
G1 X236.731 Y201.157 E52.85672
G1 X236.608 Y200.316 E52.89629
G1 X236.597 Y193.6 E53.20902
G1 X63.4 Y193.603 E61.2738
G1 X63.4 Y200.364 E61.58862
G1 X63.198 Y201.35 E61.63548
G1 X62.774 Y202.155 E61.67785
G1 X62.542 Y202.467 E61.69595
G1 X61.849 Y203.025 E61.73738
G1 X60.957 Y203.469 E61.78378
G1 X60.116 Y203.592 E61.82336
G1 X49.836 Y203.6 E62.30204
G1 X48.85 Y203.398 E62.3489
G1 X48.045 Y202.974 E62.39127
G1 X47.733 Y202.742 E62.40937
G1 X47.175 Y202.049 E62.4508
G1 X46.731 Y201.157 E62.4972
G1 X46.608 Y200.316 E62.53678
G1 X46.597 Y193.6 E62.8495
G1 X27.454 Y193.565 E63.74088
G1 X26.332 Y193.381 E63.79382
G1 X25.338 Y193.01 E63.84323
G1 X24.391 Y192.474 E63.8939
G1 X23.542 Y191.786 E63.94478
G1 X22.894 Y191.092 E63.98899
G1 X22.074 Y189.674 E64.06527
G1 X21.794 Y188.734 E64.11094
G1 X21.603 Y187.331 E64.17687
G1 X21.623 Y112.19 E67.67575
G1 X21.872 Y110.977 E67.73341
G1 X22.161 Y110.201 E67.77197
G1 X22.765 Y109.136 E67.82898
G1 X23.453 Y108.301 E67.87936
G1 X24.109 Y107.694 E67.92097
G1 X25.526 Y106.874 E67.99721
G1 X26.466 Y106.594 E68.04288
G1 X27.869 Y106.403 E68.10881
G1 X46.6 Y106.397 E68.981
G1 X46.6 Y99.636 E69.29582
G1 X46.802 Y98.65 E69.34269
G1 X47.226 Y97.845 E69.38506
G1 X47.458 Y97.533 E69.40316
G1 X48.151 Y96.975 E69.44459
G0 F3900 X48.367 Y97.314
G1 F1650 X49.163 Y96.918 E69.48599
G1 X49.942 Y96.804 E69.52265
G1 X60.123 Y96.8 E69.99672
G1 X61.013 Y96.982 E70.03902
G1 X61.768 Y97.38 E70.07876
G1 X61.988 Y97.549 E70.09168
G1 X62.486 Y98.167 E70.12863
G1 X62.882 Y98.963 E70.17003
G1 X62.996 Y99.742 E70.20669
G1 X63.003 Y106.759 E70.53343
G1 X63.138 Y106.8 E70.54
G1 X236.957 Y106.797 E78.63374
G1 X237 Y106.661 E78.64039
G1 X237 Y99.677 E78.96559
G1 X237.182 Y98.787 E79.00789
G1 X237.58 Y98.032 E79.04763
G1 X237.749 Y97.812 E79.06055
G1 X238.367 Y97.314 E79.09751
G1 X239.163 Y96.918 E79.13891
G1 X239.942 Y96.804 E79.17557
G1 X250.123 Y96.8 E79.64964
G1 X251.013 Y96.982 E79.69193
G1 X251.768 Y97.38 E79.73168
G1 X251.988 Y97.549 E79.74459
G1 X252.486 Y98.167 E79.78155
G1 X252.882 Y98.963 E79.82295
G1 X252.996 Y99.742 E79.85961
G1 X253.003 Y106.759 E80.18635
G1 X253.138 Y106.8 E80.19292
G1 X272.481 Y106.83 E81.09361
G1 X273.565 Y107.008 E81.14476
G1 X274.522 Y107.365 E81.19233
G1 X275.357 Y107.837 E81.23699
G1 X276.206 Y108.525 E81.28787
G1 X276.783 Y109.148 E81.32741
G1 X277.555 Y110.483 E81.39922
G1 X277.81 Y111.321 E81.44001
G1 X277.997 Y112.669 E81.50338
G1 X277.977 Y187.77 E85.0004
G1 X277.753 Y188.883 E85.05326
G1 X277.464 Y189.659 E85.09182
G1 X276.925 Y190.611 E85.14276
G1 X276.275 Y191.406 E85.19058
G1 X275.652 Y191.983 E85.23012
G1 X274.317 Y192.755 E85.30193
G1 X273.479 Y193.01 E85.34271
G1 X272.131 Y193.197 E85.40608
G1 X253.041 Y193.203 E86.29499
G1 X253 Y193.338 E86.30156
G1 X253 Y200.323 E86.62681
G1 X252.818 Y201.213 E86.66911
G1 X252.42 Y201.968 E86.70886
G1 X252.251 Y202.188 E86.72177
G1 X251.633 Y202.686 E86.75873
G1 X250.837 Y203.082 E86.80013
G1 X250.058 Y203.196 E86.83679
G1 X239.833 Y203.2 E87.31291
G1 X238.979 Y203.014 E87.35361
G1 X238.231 Y202.62 E87.39297
G1 X238.012 Y202.451 E87.40585
G1 X237.514 Y201.833 E87.44281
G1 X237.118 Y201.037 E87.48421
G1 X237.004 Y200.258 E87.52087
G1 X236.997 Y193.244 E87.84747
G1 X236.855 Y193.2 E87.85439
G1 X63.085 Y193.203 E95.94585
G1 X63 Y193.248 E95.95033
G1 X63 Y200.323 E96.27977
G1 X62.818 Y201.213 E96.32207
G1 X62.42 Y201.968 E96.36181
G1 X62.251 Y202.188 E96.37473
G1 X61.633 Y202.686 E96.41169
G1 X60.837 Y203.082 E96.45309
G1 X60.058 Y203.196 E96.48975
G1 X49.877 Y203.2 E96.96382
G1 X48.987 Y203.018 E97.00612
G1 X48.232 Y202.62 E97.04586
G1 X48.012 Y202.451 E97.05877
G1 X47.514 Y201.833 E97.09573
G1 X47.118 Y201.037 E97.13713
G1 X47.004 Y200.258 E97.17379
G1 X46.997 Y193.244 E97.50039
G1 X46.859 Y193.2 E97.50714
G1 X27.519 Y193.17 E98.40769
G1 X26.435 Y192.992 E98.45884
G1 X25.478 Y192.635 E98.5064
G1 X24.643 Y192.163 E98.55106
G1 X23.794 Y191.475 E98.60195
G1 X23.217 Y190.852 E98.64149
G1 X22.445 Y189.517 E98.7133
G1 X22.19 Y188.679 E98.75408
G1 X22.003 Y187.331 E98.81745
G1 X22.023 Y112.23 E102.31447
G1 X22.247 Y111.117 E102.36734
G1 X22.536 Y110.341 E102.40589
G1 X23.075 Y109.389 E102.45684
G1 X23.725 Y108.594 E102.50465
G1 X24.348 Y108.017 E102.54419
G1 X25.683 Y107.245 E102.616
G1 X26.521 Y106.99 E102.65679
G1 X27.869 Y106.803 E102.72016
G1 X46.957 Y106.797 E103.60898
G1 X47 Y106.661 E103.61562
G1 X47 Y99.677 E103.94082
G1 X47.182 Y98.787 E103.98312
G1 X47.58 Y98.032 E104.02286
G1 X47.749 Y97.812 E104.03578
G1 X48.367 Y97.314 E104.07274
G0 F3900 X48.583 Y97.653
G1 F1650 X49.283 Y97.305 E104.10914
G1 X50 Y97.2 E104.14288
G1 X60.082 Y97.2 E104.61234
G1 X60.878 Y97.363 E104.65018
G1 X61.582 Y97.734 E104.68723
G1 X61.707 Y97.837 E104.69477
G1 X62.147 Y98.383 E104.72742
G1 X62.495 Y99.083 E104.76382
G1 X62.6 Y99.8 E104.79757
G1 X62.603 Y106.714 E105.11951
G1 X62.657 Y106.954 E105.13097
G1 X62.774 Y107.106 E105.1399
G1 X63.078 Y107.2 E105.15472
G1 X236.915 Y107.197 E113.24929
G1 X237.153 Y107.143 E113.26066
G1 X237.305 Y107.027 E113.26956
G1 X237.4 Y106.722 E113.28444
G1 X237.4 Y99.718 E113.61057
G1 X237.563 Y98.922 E113.64841
G1 X237.934 Y98.218 E113.68546
G1 X238.037 Y98.093 E113.693
G1 X238.583 Y97.653 E113.72566
G1 X239.283 Y97.305 E113.76206
G1 X240 Y97.2 E113.7958
G1 X250.082 Y97.2 E114.26526
G1 X250.878 Y97.363 E114.30309
G1 X251.582 Y97.734 E114.34015
G1 X251.707 Y97.837 E114.34769
G1 X252.147 Y98.383 E114.38034
G1 X252.495 Y99.083 E114.41674
G1 X252.6 Y99.8 E114.45048
G1 X252.603 Y106.714 E114.77243
G1 X252.657 Y106.954 E114.78388
G1 X252.774 Y107.106 E114.79282
G1 X253.078 Y107.2 E114.80763
G1 X272.416 Y107.225 E115.70809
G1 X273.465 Y107.397 E115.75759
G1 X274.327 Y107.714 E115.80036
G1 X275.106 Y108.149 E115.8419
G1 X275.912 Y108.797 E115.89006
G1 X276.461 Y109.39 E115.92769
G1 X277.184 Y110.64 E115.99493
G1 X277.427 Y111.438 E116.03377
G1 X277.597 Y112.669 E116.09163
G1 X277.577 Y187.733 E119.58693
G1 X277.378 Y188.743 E119.63486
G1 X277.089 Y189.519 E119.67342
G1 X276.615 Y190.359 E119.71833
G1 X276.003 Y191.112 E119.76352
G1 X275.41 Y191.661 E119.80115
G1 X274.16 Y192.384 E119.86839
G1 X273.362 Y192.627 E119.90723
G1 X272.131 Y192.797 E119.96509
G1 X253.085 Y192.803 E120.85195
G1 X252.846 Y192.857 E120.86336
G1 X252.694 Y192.974 E120.8723
G1 X252.6 Y193.278 E120.88711
G1 X252.6 Y200.282 E121.21325
G1 X252.437 Y201.078 E121.25108
G1 X252.066 Y201.782 E121.28814
G1 X251.963 Y201.907 E121.29568
G1 X251.417 Y202.347 E121.32833
G1 X250.717 Y202.695 E121.36473
G1 X250 Y202.8 E121.39847
G1 X239.877 Y202.8 E121.86984
G1 X239.118 Y202.635 E121.90601
G1 X238.418 Y202.266 E121.94286
G1 X238.293 Y202.163 E121.9504
G1 X237.853 Y201.617 E121.98305
G1 X237.505 Y200.917 E122.01945
G1 X237.4 Y200.2 E122.05319
G1 X237.397 Y193.284 E122.37523
G1 X237.344 Y193.045 E122.38663
G1 X237.233 Y192.899 E122.39517
G1 X236.918 Y192.8 E122.41055
G1 X62.985 Y192.803 E130.5096
G1 X62.718 Y192.944 E130.52366
G1 X62.645 Y193.065 E130.53024
G1 X62.6 Y193.353 E130.54381
G1 X62.6 Y200.282 E130.86645
G1 X62.437 Y201.078 E130.90429
G1 X62.066 Y201.782 E130.94134
G1 X61.963 Y201.907 E130.94888
G1 X61.417 Y202.347 E130.98154
G1 X60.717 Y202.695 E131.01794
G1 X60 Y202.8 E131.05168
G1 X49.918 Y202.8 E131.52114
G1 X49.122 Y202.637 E131.55897
G1 X48.418 Y202.266 E131.59603
G1 X48.293 Y202.163 E131.60357
G1 X47.853 Y201.617 E131.63622
G1 X47.505 Y200.917 E131.67262
G1 X47.4 Y200.2 E131.70636
G1 X47.397 Y193.284 E132.0284
G1 X47.344 Y193.045 E132.0398
G1 X47.233 Y192.899 E132.04834
G1 X46.92 Y192.8 E132.06363
G1 X27.584 Y192.775 E132.96399
G1 X26.535 Y192.603 E133.01349
G1 X25.673 Y192.286 E133.05626
G1 X24.894 Y191.851 E133.0978
G1 X24.088 Y191.203 E133.14596
G1 X23.539 Y190.61 E133.18359
G1 X22.816 Y189.36 E133.25083
G1 X22.573 Y188.562 E133.28967
G1 X22.403 Y187.331 E133.34754
G1 X22.423 Y112.267 E136.84283
G1 X22.622 Y111.257 E136.89077
G1 X22.911 Y110.481 E136.92932
G1 X23.385 Y109.641 E136.97424
G1 X23.997 Y108.888 E137.01942
G1 X24.59 Y108.339 E137.05705
G1 X25.84 Y107.616 E137.12429
G1 X26.638 Y107.373 E137.16313
G1 X27.869 Y107.203 E137.221
G1 X46.915 Y107.197 E138.10786
G1 X47.153 Y107.143 E138.11922
G1 X47.305 Y107.027 E138.12812
G1 X47.4 Y106.722 E138.143
G1 X47.4 Y99.718 E138.46913
G1 X47.563 Y98.922 E138.50697
G1 X47.934 Y98.218 E138.54402
G1 X48.037 Y98.093 E138.55157
G1 X48.583 Y97.653 E138.58422
G0 F3900 X48.799 Y97.992
G1 F1650 X49.405 Y97.691 E138.61572
G1 X50 Y97.6 E138.64375
G1 X60.041 Y97.6 E139.1113
G1 X60.743 Y97.744 E139.14467
G1 X61.396 Y98.088 E139.17904
G1 X61.808 Y98.599 E139.2096
G1 X62.109 Y99.205 E139.24111
G1 X62.2 Y99.8 E139.26914
G1 X62.203 Y106.758 E139.59313
G1 X62.286 Y107.128 E139.61079
G1 X62.508 Y107.416 E139.62772
G1 X62.725 Y107.534 E139.63922
G1 X63.038 Y107.6 E139.65412
G1 X236.958 Y107.597 E147.75256
G1 X237.328 Y107.514 E147.77022
G1 X237.617 Y107.291 E147.78722
G1 X237.734 Y107.075 E147.79866
G1 X237.8 Y106.762 E147.81355
G1 X237.8 Y99.759 E148.13964
G1 X237.944 Y99.057 E148.17301
G1 X238.288 Y98.404 E148.20738
G1 X238.799 Y97.992 E148.23794
G1 X239.405 Y97.691 E148.26945
G1 X240 Y97.6 E148.29748
G1 X250.041 Y97.6 E148.76503
G1 X250.743 Y97.744 E148.7984
G1 X251.396 Y98.088 E148.83276
G1 X251.808 Y98.599 E148.86333
G1 X252.109 Y99.205 E148.89484
G1 X252.2 Y99.8 E148.92286
G1 X252.203 Y106.758 E149.24686
G1 X252.286 Y107.128 E149.26451
G1 X252.508 Y107.416 E149.28145
G1 X252.725 Y107.534 E149.29295
G1 X253.039 Y107.6 E149.30789
G1 X272.351 Y107.62 E150.20714
G1 X273.365 Y107.786 E150.25498
G1 X274.134 Y108.065 E150.29307
G1 X274.857 Y108.462 E150.33148
G1 X275.618 Y109.069 E150.37681
G1 X276.139 Y109.632 E150.41253
G1 X276.813 Y110.797 E150.4752
G1 X277.044 Y111.555 E150.5121
G1 X277.197 Y112.669 E150.56445
G1 X277.177 Y187.693 E154.05789
G1 X277.002 Y188.606 E154.10117
G1 X276.739 Y189.325 E154.13682
G1 X276.304 Y190.108 E154.17853
G1 X275.731 Y190.818 E154.22102
G1 X275.168 Y191.339 E154.25673
G1 X274.003 Y192.013 E154.31941
G1 X273.245 Y192.244 E154.3563
G1 X272.131 Y192.397 E154.40866
G1 X253.042 Y192.403 E155.29753
G1 X252.672 Y192.486 E155.31518
G1 X252.384 Y192.708 E155.33212
G1 X252.266 Y192.925 E155.34362
G1 X252.2 Y193.238 E155.35851
G1 X252.2 Y200.241 E155.6846
G1 X252.056 Y200.943 E155.71797
G1 X251.712 Y201.596 E155.75234
G1 X251.201 Y202.008 E155.7829
G1 X250.595 Y202.309 E155.81441
G1 X250 Y202.4 E155.84244
G1 X239.921 Y202.4 E156.31176
G1 X239.255 Y202.255 E156.3435
G1 X238.604 Y201.912 E156.37776
G1 X238.192 Y201.401 E156.40832
G1 X237.891 Y200.795 E156.43983
G1 X237.8 Y200.2 E156.46786
G1 X237.797 Y193.242 E156.79185
G1 X237.715 Y192.873 E156.80945
G1 X237.499 Y192.589 E156.82607
G1 X237.273 Y192.465 E156.83807
G1 X236.962 Y192.4 E156.85287
G1 X62.906 Y192.403 E164.95764
G1 X62.598 Y192.528 E164.97312
G1 X62.413 Y192.676 E164.98415
