;FLAVOR:Marlin
;TIME:13829
;Filament used: 20.3191m
;Layer height: 0.28
;MINX:0
;MINY:0
;MINZ:0.28
;MAXX:280.003
;MAXY:195.205
;MAXZ:20.28
;TARGET_MACHINE.NAME:Hellbot Magna SE 300
;Generated with Cura_SteamEngine 5.11.0
M140 S60
M105
M190 S60
M104 S210
M105
M109 S210
G28 ;Home
G1 Z15.0 F6000 ;Move the platform down 15mm
;Prime the extruder
G92 E0
G1 F200 E3
G92 E0
M82 ;absolute extrusion mode
G92 E0
G92 E0
G1 F2700 E-3
;LAYER_COUNT:71
;LAYER:0
M107
G1 F600 Z0.68
G0 F3900 X0.00 Y0.00 Z0.68
G0 X23.615 Y104.913
;TYPE:SKIRT
G1 F600 Z0.28
G1 F2700 E0
G1 F1650 X24.62 Y104.8 E0.04709
G1 X275.69 Y104.824 E11.73796
G1 X276.742 Y104.998 E11.78761
G1 X278.017 Y105.637 E11.85402
G1 X279.151 Y106.71 E11.92672
G1 X279.836 Y108.16 E12.00139
G1 X280.003 Y109.47 E12.06288
G1 X279.998 Y190.961 E15.85745
G1 X279.752 Y192.072 E15.91043
G1 X279.031 Y193.439 E15.9824
G1 X277.774 Y194.555 E16.06067
G1 X276.343 Y195.105 E16.13205
G1 X275.3 Y195.205 E16.18084
G1 X24.208 Y195.166 E27.87274
G1 X23.311 Y195.01 E27.91513
G1 X22.097 Y194.47 E27.977
G1 X20.898 Y193.354 E28.05327
G1 X20.194 Y191.934 E28.12707
G1 X20.023 Y190.906 E28.1756
G1 X19.996 Y108.956 E31.99154
G1 X20.46 Y107.359 E32.06897
G1 X21.494 Y105.998 E32.14856
G1 X22.607 Y105.281 E32.21021
G1 X23.615 Y104.913 E32.26018
G0 F3900 X23.709 Y105.305
G1 F1650 X24.62 Y105.2 E32.30288
G1 X275.625 Y105.219 E43.99072
G1 X276.617 Y105.383 E44.03754
G1 X277.784 Y105.968 E44.09833
G1 X278.821 Y106.949 E44.1648
G1 X279.447 Y108.274 E44.23303
G1 X279.603 Y109.47 E44.2892
G1 X279.598 Y190.916 E48.08166
G1 X279.373 Y191.933 E48.13016
G1 X278.711 Y193.188 E48.19623
G1 X277.561 Y194.209 E48.26784
G1 X276.252 Y194.712 E48.33314
G1 X275.3 Y194.805 E48.37768
G1 X24.277 Y194.772 E60.06636
G1 X23.427 Y194.624 E60.10654
G1 X22.323 Y194.133 E60.1628
G1 X21.223 Y193.109 E60.23278
G1 X20.579 Y191.811 E60.30025
G1 X20.418 Y190.841 E60.34603
G1 X20.396 Y109.013 E64.15629
G1 X20.823 Y107.543 E64.22757
G1 X21.771 Y106.295 E64.30054
G1 X22.785 Y105.642 E64.3567
G1 X23.709 Y105.305 E64.4025
G0 F3900 X23.803 Y105.697
G1 F1650 X24.62 Y105.6 E64.44081
G1 X275.56 Y105.614 E76.12563
G1 X276.492 Y105.768 E76.16962
G1 X277.554 Y106.3 E76.22493
G1 X278.49 Y107.186 E76.28494
G1 X279.059 Y108.391 E76.34699
G1 X279.203 Y109.47 E76.39768
G1 X279.198 Y190.87 E80.188
G1 X278.993 Y191.795 E80.23212
G1 X278.391 Y192.937 E80.29223
G1 X277.348 Y193.863 E80.35718
G1 X276.161 Y194.319 E80.41639
G1 X275.3 Y194.405 E80.45668
G1 X24.346 Y194.378 E92.14215
G1 X23.543 Y194.238 E92.1801
G1 X22.549 Y193.796 E92.23076
G1 X21.548 Y192.864 E92.29444
G1 X20.965 Y191.689 E92.35552
G1 X20.813 Y190.775 E92.39867
G1 X20.796 Y109.07 E96.20319
G1 X21.186 Y107.727 E96.26831
G1 X22.049 Y106.591 E96.33474
G1 X22.961 Y106.004 E96.38524
G1 X23.803 Y105.697 E96.42698
G0 F3900 X23.897 Y106.089
G1 F1650 X24.62 Y106 E96.4609
G1 X275.495 Y106.009 E108.14269
G1 X276.367 Y106.153 E108.18384
G1 X277.321 Y106.631 E108.23353
G1 X278.16 Y107.425 E108.28732
G1 X278.671 Y108.508 E108.34308
G1 X278.803 Y109.47 E108.38829
G1 X278.798 Y190.825 E112.17652
G1 X278.614 Y191.656 E112.21615
G1 X278.071 Y192.686 E112.27037
G1 X277.135 Y193.517 E112.32865
G1 X276.07 Y193.926 E112.38177
G1 X275.3 Y194.005 E112.41782
G1 X24.414 Y193.984 E124.10012
G1 X23.66 Y193.853 E124.13576
G1 X22.775 Y193.459 E124.18086
G1 X21.873 Y192.619 E124.23826
G1 X21.35 Y191.566 E124.293
G1 X21.208 Y190.71 E124.33341
G1 X21.196 Y109.126 E128.1323
G1 X21.549 Y107.909 E128.19131
G1 X22.324 Y106.89 E128.25092
G1 X23.139 Y106.365 E128.29606
G1 X23.897 Y106.089 E128.33362
G0 F3900 X23.991 Y106.481
G1 F1650 X24.62 Y106.4 E128.36315
G1 X275.43 Y106.404 E140.04192
G1 X276.242 Y106.538 E140.08024
G1 X277.088 Y106.962 E140.1243
G1 X277.83 Y107.664 E140.17187
G1 X278.283 Y108.625 E140.22134
G1 X278.403 Y109.47 E140.26108
G1 X278.398 Y190.78 E144.04721
G1 X278.235 Y191.517 E144.08236
G1 X277.751 Y192.435 E144.13068
G1 X276.922 Y193.171 E144.1823
G1 X275.979 Y193.533 E144.22934
G1 X275.3 Y193.605 E144.26113
G1 X24.483 Y193.59 E155.94022
G1 X23.776 Y193.467 E155.97364
G1 X23.001 Y193.122 E156.01314
G1 X22.198 Y192.374 E156.06424
G1 X21.736 Y191.444 E156.11259
G1 X21.603 Y190.644 E156.15036
G1 X21.596 Y109.183 E159.94352
G1 X21.913 Y108.091 E159.99647
G1 X22.6 Y107.187 E160.04934
G1 X23.315 Y106.727 E160.08893
G1 X23.991 Y106.481 E160.12242
G0 F3900 X24.084 Y106.873
G1 F1650 X24.671 Y106.797 E160.14998
G1 X275.365 Y106.799 E171.82335
G1 X276.117 Y106.923 E171.85884
G1 X276.858 Y107.294 E171.89742
G1 X277.499 Y107.901 E171.93853
G1 X277.895 Y108.741 E171.98177
G1 X278.003 Y109.47 E172.01609
G1 X277.998 Y190.735 E175.80013
G1 X277.856 Y191.378 E175.83079
G1 X277.431 Y192.184 E175.87322
G1 X276.709 Y192.825 E175.91818
G1 X275.888 Y193.14 E175.95912
G1 X275.3 Y193.205 E175.98667
G1 X24.552 Y193.196 E187.66255
G1 X23.892 Y193.081 E187.69374
G1 X23.227 Y192.785 E187.72764
G1 X22.523 Y192.129 E187.77244
G1 X22.121 Y191.321 E187.81447
G1 X21.998 Y190.579 E187.84949
G1 X21.996 Y109.24 E191.63697
G1 X22.277 Y108.273 E191.68386
G1 X22.875 Y107.486 E191.72989
G1 X23.494 Y107.087 E191.76418
G1 X24.084 Y106.873 E191.7934
G0 F3900 X24.18 Y107.264
G1 F1650 X24.671 Y107.197 E191.81648
G1 X275.3 Y107.194 E203.48681
G1 X275.992 Y107.308 E203.51947
G1 X276.628 Y107.626 E203.55258
G1 X277.168 Y108.138 E203.58723
G1 X277.509 Y108.86 E203.62441
G1 X277.603 Y109.47 E203.65315
G1 X277.598 Y190.69 E207.4351
G1 X277.477 Y191.239 E207.46127
G1 X277.111 Y191.933 E207.49781
G1 X276.497 Y192.478 E207.53604
G1 X275.792 Y192.749 E207.57121
G1 X275.3 Y192.805 E207.59426
G1 X24.621 Y192.802 E219.26693
G1 X24.008 Y192.695 E219.2959
G1 X23.453 Y192.448 E219.32419
G1 X22.848 Y191.884 E219.3627
G1 X22.506 Y191.197 E219.39844
G1 X22.398 Y190.579 E219.42765
G1 X22.396 Y109.297 E223.21248
G1 X22.64 Y108.457 E223.25321
G1 X23.152 Y107.783 E223.29262
G1 X23.673 Y107.447 E223.32149
G1 X24.18 Y107.264 E223.34659
G0 F3900 X24.238 Y107.66
G1 F1650 X24.671 Y107.597 E223.36696
G1 X275.3 Y107.594 E235.0373
G1 X275.866 Y107.692 E235.06405
G1 X276.398 Y107.958 E235.09174
G1 X276.837 Y108.375 E235.11994
G1 X277.122 Y108.979 E235.15104
G1 X277.203 Y109.47 E235.17421
G1 X277.198 Y190.645 E238.95406
G1 X277.098 Y191.1 E238.97575
G1 X276.791 Y191.682 E239.00639
G1 X276.284 Y192.132 E239.03795
G1 X275.698 Y192.357 E239.06718
G1 X275.3 Y192.405 E239.08585
G1 X24.621 Y192.402 E250.75851
G1 X24.128 Y192.31 E250.78187
G1 X23.678 Y192.11 E250.8048
G1 X23.174 Y191.64 E250.83689
G1 X22.889 Y191.069 E250.8666
G1 X22.798 Y190.579 E250.88981
G1 X22.796 Y109.353 E254.67203
G1 X23.003 Y108.639 E254.70665
G1 X23.428 Y108.08 E254.73935
G1 X23.815 Y107.821 E254.76103
G1 X24.238 Y107.66 E254.78211
G0 F3900 X24.368 Y108.449
G1 F1650 X24.671 Y108.397 E254.79642
G1 X275.3 Y108.394 E266.46676
G1 X275.634 Y108.45 E266.48253
G1 X275.942 Y108.605 E266.49858
G1 X276.22 Y108.892 E266.51719
G1 X276.364 Y109.209 E266.5334
G1 X276.403 Y109.47 E266.54569
G1 X276.404 Y190.53 E270.32018
G1 X276.35 Y190.834 E270.33456
G1 X276.195 Y191.142 E270.35061
G1 X275.908 Y191.42 E270.36922
G1 X275.591 Y191.564 E270.38543
G1 X275.3 Y191.605 E270.39912
G1 X24.621 Y191.602 E282.07178
G1 X24.297 Y191.528 E282.08725
G1 X24.089 Y191.418 E282.09821
G1 X23.78 Y191.112 E282.11846
G1 X23.671 Y190.902 E282.12948
G1 X23.598 Y190.579 E282.1449
G1 X23.596 Y109.409 E285.92451
G1 X23.692 Y109.052 E285.94173
G1 X23.946 Y108.694 E285.96217
G1 X24.129 Y108.556 E285.97284
G1 X24.368 Y108.449 E285.98503
G0 F3900 X24.3 Y108.055
G1 F1650 X24.671 Y107.997 E286.00252
G1 X275.3 Y107.994 E297.67285
G1 X275.7 Y108.056 E297.6917
G1 X276.122 Y108.248 E297.71329
G1 X276.507 Y108.614 E297.73802
G1 X276.76 Y109.15 E297.76562
G1 X276.803 Y109.47 E297.78066
G1 X276.798 Y190.6 E301.55841
G1 X276.707 Y191.014 E301.57815
G1 X276.473 Y191.429 E301.60033
G1 X276.073 Y191.784 E301.62524
G1 X275.647 Y191.96 E301.6467
G1 X275.3 Y192.005 E301.66299
G1 X24.621 Y192.002 E313.33566
G1 X24.208 Y191.918 E313.35528
G1 X23.902 Y191.772 E313.37107
G1 X23.499 Y191.396 E313.39673
G1 X23.281 Y190.99 E313.41819
G1 X23.198 Y190.579 E313.43772
G1 X23.196 Y109.409 E317.21733
G1 X23.366 Y108.821 E317.24583
G1 X23.705 Y108.375 E317.27192
G1 X23.966 Y108.191 E317.28679
G1 X24.3 Y108.055 E317.30358
G1 F2700 E314.30358
G1 F600 Z0.68
;MESH:Tapa.stl
G0 F3900 X24.3 Y108.055 Z0.68
G0 X153.664 Y158.85
;TYPE:WALL-INNER
G1 F600 Z0.28
G1 F2700 E317.30358
G1 F1650 X152.889 Y158.916 E317.3398
G1 X152.278 Y158.873 E317.36832
G1 X151.539 Y158.705 E317.40361
G1 X150.996 Y158.498 E317.43067
G1 X150.453 Y158.203 E317.45944
G1 X149.672 Y157.597 E317.50547
G1 X149.095 Y156.844 E317.54964
G1 X148.719 Y156.132 E317.58714
G1 X148.495 Y155.402 E317.62269
G1 X148.384 Y154.617 E317.65961
G1 X148.416 Y153.825 E317.69652
G1 X148.592 Y153.05 E317.73353
G1 X148.888 Y152.331 E317.76973
G1 X149.307 Y151.678 E317.80586
G1 X149.843 Y151.085 E317.84308
G1 X150.475 Y150.612 E317.87984
G1 X151.159 Y150.248 E317.91592
G1 X151.854 Y150.031 E317.94982
G1 X152.341 Y149.947 E317.97283
G1 X153.093 Y149.913 E318.00788
G1 X153.875 Y150.023 E318.04465
G1 X154.801 Y150.313 E318.08984
G1 X155.625 Y150.84 E318.13538
G1 X156.218 Y151.381 E318.17276
G1 X156.681 Y151.99 E318.20838
G1 X157.06 Y152.721 E318.24672
G1 X157.312 Y153.62 E318.2902
G1 X157.403 Y154.604 E318.33621
G1 X157.227 Y155.603 E318.38345
G1 X156.89 Y156.462 E318.42641
G1 X156.566 Y157.007 E318.45594
G1 X156.064 Y157.605 E318.49229
G1 X155.452 Y158.11 E318.52924
G1 X154.754 Y158.506 E318.56661
G1 X154.236 Y158.705 E318.59245
G1 X153.664 Y158.85 E318.61992
G0 F3900 X154.077 Y158.335
G1 F1650 X153.547 Y158.458 E318.64526
G1 X152.852 Y158.512 E318.67772
G1 X152.338 Y158.478 E318.7017
G1 X151.698 Y158.334 E318.73225
G1 X151.189 Y158.145 E318.75753
G1 X150.698 Y157.881 E318.78349
G1 X149.963 Y157.318 E318.8266
G1 X149.442 Y156.644 E318.86627
G1 X149.083 Y155.957 E318.90236
G1 X148.878 Y155.279 E318.93535
G1 X148.788 Y154.594 E318.96752
G1 X148.814 Y153.898 E318.99995
G1 X148.977 Y153.169 E319.03473
G1 X149.232 Y152.545 E319.06612
G1 X149.616 Y151.937 E319.09961
G1 X150.113 Y151.386 E319.13416
G1 X150.668 Y150.963 E319.16665
G1 X151.282 Y150.635 E319.19907
G1 X151.96 Y150.417 E319.23223
G1 X152.352 Y150.348 E319.25076
G1 X153.094 Y150.318 E319.28534
G1 X153.761 Y150.408 E319.31668
G1 X154.631 Y150.68 E319.35912
G1 X155.376 Y151.155 E319.40027
G1 X155.908 Y151.635 E319.43363
G1 X156.326 Y152.186 E319.46584
G1 X156.672 Y152.84 E319.50029
G1 X156.919 Y153.692 E319.54159
G1 X157.001 Y154.593 E319.58372
G1 X156.836 Y155.501 E319.62669
G1 X156.528 Y156.296 E319.66639
G1 X156.258 Y156.744 E319.69075
G1 X155.792 Y157.306 E319.72475
G1 X155.228 Y157.778 E319.75899
G1 X154.633 Y158.121 E319.79097
G1 X154.077 Y158.335 E319.81871
G0 F3900 X154.15 Y158.637
G0 X156.193 Y165.678
G0 X156.311 Y167.019
G0 X155.895 Y168.455
G0 X155.185 Y169.421
G0 X153.333 Y170.594
G1 F1650 X152.647 Y170.68 E319.8509
G1 X151.954 Y170.648 E319.88321
G1 X151.279 Y170.502 E319.91537
G1 X150.766 Y170.302 E319.941
G1 X150.042 Y169.867 E319.98033
G1 X149.502 Y169.366 E320.01463
G1 X149.115 Y168.862 E320.04422
G1 X148.833 Y168.343 E320.07173
G1 X148.599 Y167.686 E320.1042
G1 X148.502 Y167.192 E320.12764
G1 X148.472 Y166.506 E320.15962
G1 X148.566 Y165.822 E320.19177
G1 X148.846 Y164.984 E320.23291
G1 X149.299 Y164.239 E320.27351
G1 X149.758 Y163.743 E320.30498
G1 X150.329 Y163.301 E320.3386
G1 X150.775 Y163.062 E320.36216
G1 X151.447 Y162.81 E320.39558
G1 X152.136 Y162.699 E320.42808
G1 X152.845 Y162.701 E320.46109
G1 X153.498 Y162.818 E320.49198
G1 X154.016 Y162.99 E320.5174
G1 X154.648 Y163.322 E320.55064
G1 X155.296 Y163.848 E320.5895
G1 X155.758 Y164.404 E320.62316
G1 X156.035 Y164.856 E320.64785
G1 X156.335 Y165.631 E320.68654
G1 X156.455 Y166.315 E320.71888
G1 X156.457 Y167.021 E320.75175
G1 X156.335 Y167.735 E320.78548
G1 X156.034 Y168.509 E320.82415
G1 X155.668 Y169.087 E320.85601
G1 X155.285 Y169.535 E320.88345
G1 X154.659 Y170.031 E320.92064
G1 X154.136 Y170.327 E320.94863
G1 X153.333 Y170.594 E320.98803
G0 F3900 X153.275 Y170.192
G1 F1650 X152.63 Y170.28 E321.01834
G1 X152.005 Y170.254 E321.04747
G1 X151.394 Y170.119 E321.07661
G1 X150.942 Y169.943 E321.09919
G1 X150.3 Y169.556 E321.1341
G1 X149.805 Y169.104 E321.16531
G1 X149.427 Y168.609 E321.19431
G1 X149.202 Y168.189 E321.2165
G1 X149 Y167.636 E321.24391
G1 X148.897 Y167.122 E321.26832
G1 X148.876 Y166.521 E321.29633
G1 X148.961 Y165.89 E321.32597
G1 X149.214 Y165.153 E321.36226
G1 X149.603 Y164.506 E321.39741
G1 X150.032 Y164.034 E321.42711
G1 X150.487 Y163.678 E321.45401
G1 X150.945 Y163.424 E321.4784
G1 X151.546 Y163.202 E321.50823
G1 X152.166 Y163.097 E321.53751
G1 X152.8 Y163.099 E321.56703
G1 X153.4 Y163.206 E321.59541
G1 X153.856 Y163.357 E321.61778
G1 X154.401 Y163.643 E321.64644
G1 X154.993 Y164.112 E321.68161
G1 X155.402 Y164.594 E321.71104
G1 X155.657 Y165.004 E321.73353
G1 X155.947 Y165.735 E321.77014
G1 X156.057 Y166.358 E321.7996
G1 X156.058 Y166.989 E321.82898
G1 X155.943 Y167.635 E321.85954
G1 X155.66 Y168.355 E321.89556
G1 X155.321 Y168.884 E321.92482
G1 X154.984 Y169.264 E321.94847
G1 X154.429 Y169.704 E321.98145
G1 X153.967 Y169.96 E322.00604
G1 X153.275 Y170.192 E322.04003
G0 F3900 X153.376 Y170.49
G0 X168.641 Y170.621
G1 F1650 X167.955 Y170.741 E322.07245
G1 X167.264 Y170.741 E322.10463
G1 X166.551 Y170.617 E322.13833
G1 X165.755 Y170.305 E322.17814
G1 X165.035 Y169.827 E322.21838
G1 X164.568 Y169.35 E322.24947
G1 X164.216 Y168.887 E322.27655
G1 X163.79 Y167.974 E322.32346
G1 X163.607 Y166.924 E322.37309
G1 X163.667 Y166.054 E322.4137
G1 X163.901 Y165.24 E322.45314
G1 X164.236 Y164.592 E322.4871
G1 X164.884 Y163.819 E322.53407
G1 X165.456 Y163.381 E322.56762
G1 X166.071 Y163.061 E322.5999
G1 X166.6 Y162.878 E322.62596
G1 X167.436 Y162.757 E322.6653
G1 X168.131 Y162.783 E322.69768
G1 X168.812 Y162.938 E322.7302
G1 X169.456 Y163.202 E322.76261
G1 X170.044 Y163.575 E322.79504
G1 X170.537 Y164.03 E322.82628
G1 X170.984 Y164.597 E322.85989
G1 X171.238 Y165.071 E322.88494
G1 X171.517 Y165.869 E322.9243
G1 X171.608 Y166.597 E322.95846
G1 X171.58 Y167.273 E322.98997
G1 X171.431 Y167.931 E323.02138
G1 X171.216 Y168.489 E323.04923
G1 X170.785 Y169.197 E323.08782
G1 X170.291 Y169.725 E323.12149
G1 X169.767 Y170.129 E323.1523
G1 X169.151 Y170.448 E323.1846
G1 X168.641 Y170.621 E323.20968
G0 F3900 X168.542 Y170.234
G1 F1650 X167.921 Y170.342 E323.23903
G1 X167.299 Y170.342 E323.26799
G1 X166.688 Y170.235 E323.29688
G1 X165.939 Y169.945 E323.33427
G1 X165.285 Y169.509 E323.37087
G1 X164.864 Y169.081 E323.39883
G1 X164.562 Y168.681 E323.42217
G1 X164.179 Y167.854 E323.46461
G1 X164.008 Y166.909 E323.50932
G1 X164.063 Y166.117 E323.54629
G1 X164.291 Y165.355 E323.58333
G1 X164.59 Y164.791 E323.61305
G1 X165.163 Y164.106 E323.65464
G1 X165.703 Y163.704 E323.68598
G1 X166.264 Y163.418 E323.7153
G1 X166.668 Y163.277 E323.73523
G1 X167.426 Y163.162 E323.77093
G1 X168.078 Y163.182 E323.8013
G1 X168.691 Y163.32 E323.83056
G1 X169.236 Y163.543 E323.85798
G1 X169.794 Y163.889 E323.88855
G1 X170.251 Y164.309 E323.91746
G1 X170.658 Y164.836 E323.94846
G1 X170.874 Y165.237 E323.96967
G1 X171.131 Y165.999 E324.00712
G1 X171.211 Y166.598 E324.03526
G1 X171.176 Y167.249 E324.06561
G1 X171.046 Y167.823 E324.09302
G1 X170.845 Y168.333 E324.11854
G1 X170.458 Y168.959 E324.15281
G1 X170.043 Y169.414 E324.18149
G1 X169.548 Y169.793 E324.21052
G1 X168.993 Y170.08 E324.23961
G1 X168.542 Y170.234 E324.2618
G0 F3900 X168.642 Y170.53
G0 X169.683 Y170.005
G0 X170.674 Y169.094
G0 X171.094 Y168.4
G0 X171.43 Y167.259
G0 X171.371 Y165.913
G0 X168.573 Y158.842
G1 F1650 X167.802 Y158.908 E324.29783
G1 X167.011 Y158.842 E324.33479
G1 X166.363 Y158.669 E324.36603
G1 X165.713 Y158.402 E324.39875
G1 X165.046 Y157.972 E324.4357
G1 X164.469 Y157.448 E324.47199
G1 X163.892 Y156.647 E324.51796
G1 X163.503 Y155.785 E324.562
G1 X163.328 Y154.962 E324.60117
G1 X163.297 Y154.347 E324.62985
G1 X163.331 Y153.822 E324.65435
G1 X163.494 Y153.067 E324.69031
G1 X163.702 Y152.529 E324.71717
G1 X164.114 Y151.81 E324.75576
G1 X164.729 Y151.111 E324.79911
